%
(FinalProject)
(T3  D=0.25 CR=0 - ZMIN=-0.125 - flat end mill)
(T8  D=0.5 CR=0.25 - ZMIN=-0.3521 - ball end mill)
N0 G90
N1 G17
(Parallel1)
N2 T8 M6
(T8 1/2 Ballnose)
N3 S10000 M3
N5 G0 X7.9286 Y0.8987
N6 Z0.6
N7 Z-0.0013
N8 G1 Z-0.0217 F24
N9 X7.9283 Y0.8985 Z-0.0271
N10 X7.9276 Y0.8981 Z-0.0325
N11 X7.9263 Y0.8974 Z-0.0376
N12 X7.9246 Y0.8964 Z-0.0427
N13 X7.9224 Y0.8951 Z-0.0474
N14 X7.9198 Y0.8936 Z-0.0519
N15 X7.9168 Y0.8919 Z-0.056
N16 X7.9134 Y0.8899 Z-0.0597
N17 X7.9097 Y0.8878 Z-0.063
N18 X7.9057 Y0.8855 Z-0.0658
N19 X7.9015 Y0.883 Z-0.0681
N20 X7.8971 Y0.8805 Z-0.0699
N21 X7.8925 Y0.8778 Z-0.071
N22 X7.8879 Y0.8752 Z-0.0717
N23 X7.8832 Y0.8725
N24 X7.8786 Y0.8698 Z-0.0711
N25 X7.874 Y0.8672 Z-0.07
N26 X7.7991 Y0.8239 Z-0.0467 F60
N27 X7.7729 Y0.8088 Z-0.0383
N28 X7.7685 Y0.8062 Z-0.0366 F24
N29 X7.7642 Y0.8037 Z-0.0343
N30 X7.7602 Y0.8014 Z-0.0315
N31 X7.7564 Y0.7993 Z-0.0283
N32 X7.753 Y0.7973 Z-0.0245
N33 X7.75 Y0.7956 Z-0.0204
N34 X7.7474 Y0.794 Z-0.0159
N35 X7.7452 Y0.7928 Z-0.0111
N36 X7.7434 Y0.7918 Z-0.0061
N37 X7.7422 Y0.791 Z-0.0009
N38 X7.7414 Y0.7906 Z0.0044
N39 X7.7412 Y0.7905 Z0.0099
N40 G0 Z0.2
N41 X7.9254 Y1.1854
N42 Z-0.1286
N43 G1 Z-0.1495 F24
N44 X7.9252 Y1.1853 Z-0.155
N45 X7.9244 Y1.1848 Z-0.1604
N46 X7.9231 Y1.1841 Z-0.1657
N47 X7.9213 Y1.183 Z-0.1708
N48 X7.9191 Y1.1817 Z-0.1756
N49 X7.9164 Y1.1802 Z-0.1801
N50 X7.9132 Y1.1784 Z-0.1843
N51 X7.9097 Y1.1763 Z-0.188
N52 X7.9059 Y1.1741 Z-0.1913
N53 X7.9018 Y1.1718 Z-0.194
N54 X7.8974 Y1.1692 Z-0.1963
N55 X7.8929 Y1.1666 Z-0.1979
N56 X7.8882 Y1.1639 Z-0.199
N57 X7.8835 Y1.1612 Z-0.1995
N58 X7.8787 Y1.1584 Z-0.1993
N59 X7.874 Y1.1557 Z-0.1986
N60 X7.7849 Y1.1043 Z-0.179 F60
N61 X7.6974 Y1.0537 Z-0.1582
N62 X7.6216 Y1.01 Z-0.1392
N63 X7.5588 Y0.9737 Z-0.1227
N64 X7.4834 Y0.9302 Z-0.1019
N65 X7.4209 Y0.8941 Z-0.0839
N66 X7.3586 Y0.8581 Z-0.0652
N67 X7.2964 Y0.8222 Z-0.0458
N68 X7.2733 Y0.8089 Z-0.0384
N69 X7.273 Y0.8087 Z-0.0383
N70 X7.2709 Y0.8075 Z-0.0375
N71 X6.9458 Y0.6198 Z0.1084
N72 X6.943 Y0.6183 Z0.1096
N73 X6.9402 Y0.6169 Z0.1107
N74 X6.9373 Y0.6156 Z0.1118
N75 X6.9343 Y0.6143 Z0.1127
N76 X6.9312 Y0.6132 Z0.1136
N77 X6.9281 Y0.6122 Z0.1143
N78 X6.9249 Y0.6113 Z0.115
N79 X6.9217 Y0.6106 Z0.1156
N80 X6.9184 Y0.6099 Z0.1161
N81 X6.9151 Y0.6094 Z0.1166
N82 X6.9118 Y0.609 Z0.1169
N83 X6.9085 Y0.6086 Z0.1171
N84 X6.9051 Y0.6085 Z0.1173
N85 X6.9018 Y0.6084
N86 X6.8984
N87 X6.895 Y0.6086 Z0.1171
N88 X6.8917 Y0.6089 Z0.1169
N89 X6.8884 Y0.6093 Z0.1166
N90 X6.8851 Y0.6098 Z0.1162
N91 X6.8818 Y0.6105 Z0.1157
N92 X6.8786 Y0.6112 Z0.1151
N93 X6.8754 Y0.6121 Z0.1144
N94 X6.8723 Y0.6131 Z0.1137
N95 X6.8692 Y0.6142 Z0.1128
N96 X6.8662 Y0.6154 Z0.1119
N97 X6.8633 Y0.6167 Z0.1109
N98 X6.8604 Y0.6181 Z0.1098
N99 X6.8576 Y0.6196 Z0.1086
N100 X6.8549 Y0.6212 Z0.1074
N101 X6.8523 Y0.6229 Z0.106
N102 X6.8499 Y0.6247 Z0.1047
N103 X6.8475 Y0.6266 Z0.1032
N104 X6.8452 Y0.6285 Z0.1017
N105 X6.843 Y0.6305 Z0.1001
N106 X6.841 Y0.6327 Z0.0985
N107 X6.7554 Y0.7251 Z0.0266
N108 X6.7534 Y0.7273 Z0.0249
N109 X6.7516 Y0.7295 Z0.0232
N110 X6.75 Y0.7318 Z0.0214
N111 X6.7484 Y0.7342 Z0.0196
N112 X6.747 Y0.7366 Z0.0177
N113 X6.7458 Y0.7391 Z0.0158
N114 X6.7447 Y0.7416 Z0.0138
N115 X6.7437 Y0.7441 Z0.0118
N116 X6.7428 Y0.7467 Z0.0098
N117 X6.7422 Y0.7493 Z0.0078
N118 X6.7416 Y0.7519 Z0.0058
N119 X6.7412 Y0.7545 Z0.0037
N120 X6.741 Y0.7572 Z0.0017
N121 X6.7409 Y0.7599 Z-0.0004
N122 X6.741 Y0.7625 Z-0.0025
N123 X6.7412 Y0.7652 Z-0.0045
N124 X6.7416 Y0.7678 Z-0.0066
N125 X6.7421 Y0.7704 Z-0.0086
N126 X6.7427 Y0.773 Z-0.0106
N127 X6.7436 Y0.7756 Z-0.0126
N128 X6.7445 Y0.7782 Z-0.0146
N129 X6.7456 Y0.7807 Z-0.0166
N130 X6.7469 Y0.7831 Z-0.0185
N131 X6.7482 Y0.7856 Z-0.0204
N132 X6.7498 Y0.7879 Z-0.0222
N133 X6.7514 Y0.7902 Z-0.024
N134 X6.7532 Y0.7925 Z-0.0258
N135 X6.7551 Y0.7947 Z-0.0275
N136 X6.7571 Y0.7968 Z-0.0291
N137 X6.7593 Y0.7989 Z-0.0307
N138 X6.7615 Y0.8008 Z-0.0322
N139 X6.7639 Y0.8027 Z-0.0337
N140 X6.7664 Y0.8045 Z-0.0351
N141 X6.769 Y0.8062 Z-0.0364
N142 X6.7716 Y0.8078 Z-0.0377
N143 X6.7737 Y0.809 Z-0.0385
N144 X6.7886 Y0.8176 Z-0.0433
N145 X6.8634 Y0.8608 Z-0.0667
N146 X6.9258 Y0.8968 Z-0.0853
N147 X7.0112 Y0.9462 Z-0.1098
N148 X7.0996 Y0.9972 Z-0.1335
N149 X7.174 Y1.0401 Z-0.1524
N150 X7.2499 Y1.084 Z-0.1707
N151 X7.326 Y1.1279 Z-0.1881
N152 X7.3893 Y1.1644 Z-0.2018
N153 X7.4656 Y1.2085 Z-0.2175
N154 X7.5292 Y1.2452 Z-0.2298
N155 X7.6057 Y1.2894 Z-0.2438
N156 X7.6824 Y1.3337 Z-0.257
N157 X7.784 Y1.3923 Z-0.273
N158 X7.874 Y1.4443 Z-0.2859
N159 X7.8771 Y1.4461 Z-0.286
N160 X7.8803 Y1.4479 Z-0.2857
N161 X7.8833 Y1.4497 Z-0.2849
N162 X7.8862 Y1.4513 Z-0.2835
N163 X7.8893 Y1.4531 Z-0.2821
N164 X7.8925 Y1.4549 Z-0.2812
N165 X7.8957 Y1.4568 Z-0.2809
N166 X8.0194 Y1.5282
N167 X8.0223 Y1.53 Z-0.281
N168 X8.025 Y1.5318
N169 X8.0278 Y1.5338 Z-0.2811
N170 X8.0304 Y1.5359 Z-0.2812
N171 X8.0329 Y1.5382 Z-0.2813
N172 X8.0353 Y1.5405 Z-0.2815
N173 X8.0376 Y1.5429 Z-0.2817
N174 X8.0399 Y1.5455 Z-0.2819
N175 X8.0419 Y1.5481 Z-0.2821
N176 X8.0439 Y1.5508 Z-0.2824
N177 X8.0458 Y1.5536 Z-0.2827
N178 X8.0475 Y1.5565 Z-0.283
N179 X8.0491 Y1.5594 Z-0.2834
N180 X8.0505 Y1.5624 Z-0.2838
N181 X8.0518 Y1.5655 Z-0.2842
N182 X8.053 Y1.5686 Z-0.2846
N183 X8.0541 Y1.5718 Z-0.285
N184 X8.055 Y1.575 Z-0.2855
N185 X8.0557 Y1.5782 Z-0.286
N186 X8.0563 Y1.5815 Z-0.2865
N187 X8.0568 Y1.5848 Z-0.287
N188 X8.0571 Y1.5881 Z-0.2876
N189 X8.0572 Y1.5914 Z-0.2881
N190 Y1.5947 Z-0.2887
N191 X8.0571 Y1.598 Z-0.2893
N192 X8.0568 Y1.6013 Z-0.2899
N193 X8.0563 Y1.6046 Z-0.2905
N194 X8.0557 Y1.6079 Z-0.2912
N195 X8.055 Y1.6111 Z-0.2918
N196 X8.0541 Y1.6143 Z-0.2924
N197 X8.0531 Y1.6174 Z-0.2931
N198 X8.0519 Y1.6205 Z-0.2937
N199 X8.0506 Y1.6235 Z-0.2944
N200 X8.0491 Y1.6265 Z-0.2951
N201 X8.0476 Y1.6294 Z-0.2957
N202 X7.9961 Y1.7185 Z-0.3164
N203 X7.9944 Y1.7213 Z-0.3171
N204 X7.9926 Y1.724 Z-0.3177
N205 X7.9906 Y1.7267 Z-0.3184
N206 X7.9885 Y1.7292 Z-0.319
N207 X7.9863 Y1.7317 Z-0.3197
N208 X7.984 Y1.7341 Z-0.3203
N209 X7.9816 Y1.7363 Z-0.321
N210 X7.9791 Y1.7384 Z-0.3216
N211 X7.9765 Y1.7405 Z-0.3222
N212 X7.9738 Y1.7424 Z-0.3228
N213 X7.971 Y1.7442 Z-0.3234
N214 X7.9681 Y1.7458 Z-0.324
N215 X7.9651 Y1.7473 Z-0.3245
N216 X7.9621 Y1.7487 Z-0.3251
N217 X7.959 Y1.75 Z-0.3256
N218 X7.9559 Y1.7511 Z-0.3261
N219 X7.9527 Y1.7521 Z-0.3266
N220 X7.9495 Y1.7529 Z-0.3271
N221 X7.9462 Y1.7536 Z-0.3275
N222 X7.9429 Y1.7541 Z-0.3279
N223 X7.9396 Y1.7545 Z-0.3284
N224 X7.9363 Y1.7548 Z-0.3287
N225 X7.9329 Y1.7549 Z-0.3291
N226 X7.9296 Y1.7548 Z-0.3294
N227 X7.9262 Y1.7546 Z-0.3297
N228 X7.9229 Y1.7543 Z-0.33
N229 X7.9196 Y1.7538 Z-0.3302
N230 X7.9163 Y1.7531 Z-0.3304
N231 X7.913 Y1.7523 Z-0.3306
N232 X7.9098 Y1.7514 Z-0.3308
N233 X7.9066 Y1.7503 Z-0.3309
N234 X7.9035 Y1.7491 Z-0.331
N235 X7.9004 Y1.7477 Z-0.3311
N236 X7.8974 Y1.7463 Z-0.3312
N237 X7.8944 Y1.7446
N238 X7.8911 Y1.7427 Z-0.3315
N239 X7.8879 Y1.7409 Z-0.3323
N240 X7.8849 Y1.7391 Z-0.3337
N241 X7.8823 Y1.7376 Z-0.335
N242 X7.8796 Y1.7361 Z-0.3358
N243 X7.8768 Y1.7345 Z-0.3362
N244 X7.874 Y1.7329
N245 X7.7704 Y1.673 Z-0.3288
N246 X7.6682 Y1.614 Z-0.3198
N247 X7.5909 Y1.5694 Z-0.3121
N248 X7.5137 Y1.5249 Z-0.3035
N249 X7.4236 Y1.4728 Z-0.2925
N250 X7.3218 Y1.414 Z-0.2785
N251 X7.2462 Y1.3704 Z-0.2672
N252 X7.1694 Y1.3261 Z-0.2548
N253 X7.094 Y1.2825 Z-0.2417
N254 X7.0175 Y1.2383 Z-0.2276
N255 X6.9281 Y1.1867 Z-0.2099
N256 X6.8402 Y1.136 Z-0.1912
N257 X6.7525 Y1.0854 Z-0.1713
N258 X6.6908 Y1.0497 Z-0.1565
N259 X6.6163 Y1.0067 Z-0.1378
N260 X6.542 Y0.9638 Z-0.1181
N261 X6.4679 Y0.9211 Z-0.0975
N262 X6.38 Y0.8703 Z-0.0717
N263 X6.2963 Y0.822 Z-0.0457
N264 X6.2741 Y0.8092 Z-0.0386
N265 X6.2739 Y0.809 Z-0.0385
N266 X6.2718 Y0.8078 Z-0.0377
N267 X5.9466 Y0.6201 Z0.1083
N268 X5.9438 Y0.6185 Z0.1095
N269 X5.941 Y0.6171 Z0.1106
N270 X5.9381 Y0.6158 Z0.1116
N271 X5.9351 Y0.6146 Z0.1126
N272 X5.932 Y0.6135 Z0.1134
N273 X5.9289 Y0.6125 Z0.1142
N274 X5.9257 Y0.6116 Z0.1149
N275 X5.9225 Y0.6108 Z0.1155
N276 X5.9192 Y0.6102 Z0.116
N277 X5.9159 Y0.6096 Z0.1164
N278 X5.9126 Y0.6092 Z0.1167
N279 X5.9093 Y0.6089 Z0.117
N280 X5.9059 Y0.6087 Z0.1171
N281 X5.9025 Y0.6086 Z0.1172
N282 X5.8992 Y0.6087 Z0.1171
N283 X5.8958 Y0.6089 Z0.117
N284 X5.8925 Y0.6092 Z0.1168
N285 X5.8891 Y0.6096 Z0.1165
N286 X5.8858 Y0.6101 Z0.1161
N287 X5.8826 Y0.6107 Z0.1156
N288 X5.8794 Y0.6115 Z0.115
N289 X5.8762 Y0.6124 Z0.1143
N290 X5.873 Y0.6133 Z0.1135
N291 X5.87 Y0.6144 Z0.1127
N292 X5.867 Y0.6156 Z0.1117
N293 X5.864 Y0.6169 Z0.1107
N294 X5.8612 Y0.6183 Z0.1096
N295 X5.8584 Y0.6198 Z0.1085
N296 X5.8557 Y0.6214 Z0.1072
N297 X5.8531 Y0.6231 Z0.1059
N298 X5.8506 Y0.6249 Z0.1045
N299 X5.8483 Y0.6268 Z0.1031
N300 X5.846 Y0.6288 Z0.1015
N301 X5.8438 Y0.6308 Z0.1
N302 X5.8418 Y0.6329 Z0.0983
N303 X5.7562 Y0.7253 Z0.0265
N304 X5.7542 Y0.7275 Z0.0248
N305 X5.7524 Y0.7298 Z0.023
N306 X5.7508 Y0.7321 Z0.0212
N307 X5.7492 Y0.7344 Z0.0194
N308 X5.7478 Y0.7368 Z0.0175
N309 X5.7466 Y0.7393 Z0.0156
N310 X5.7454 Y0.7418 Z0.0137
N311 X5.7445 Y0.7444 Z0.0117
N312 X5.7436 Y0.7469 Z0.0097
N313 X5.7429 Y0.7495 Z0.0077
N314 X5.7424 Y0.7522 Z0.0056
N315 X5.742 Y0.7548 Z0.0036
N316 X5.7418 Y0.7574 Z0.0015
N317 X5.7417 Y0.7601 Z-0.0005
N318 X5.7418 Y0.7628 Z-0.0026
N319 X5.742 Y0.7654 Z-0.0047
N320 X5.7423 Y0.768 Z-0.0067
N321 X5.7429 Y0.7707 Z-0.0088
N322 X5.7435 Y0.7733 Z-0.0108
N323 X5.7443 Y0.7759 Z-0.0128
N324 X5.7453 Y0.7784 Z-0.0148
N325 X5.7464 Y0.7809 Z-0.0167
N326 X5.7476 Y0.7834 Z-0.0187
N327 X5.749 Y0.7858 Z-0.0205
N328 X5.7505 Y0.7882 Z-0.0224
N329 X5.7522 Y0.7905 Z-0.0242
N330 X5.754 Y0.7927 Z-0.0259
N331 X5.7559 Y0.7949 Z-0.0276
N332 X5.7579 Y0.7971 Z-0.0293
N333 X5.7601 Y0.7991 Z-0.0309
N334 X5.7623 Y0.8011 Z-0.0324
N335 X5.7647 Y0.803 Z-0.0339
N336 X5.7672 Y0.8048 Z-0.0353
N337 X5.7698 Y0.8065 Z-0.0366
N338 X5.7724 Y0.8081 Z-0.0378
N339 X5.7745 Y0.8093 Z-0.0386
N340 X5.7813 Y0.8132 Z-0.0408
N341 X5.8535 Y0.8549 Z-0.0635
N342 X5.926 Y0.8967 Z-0.0853
N343 X5.9987 Y0.9387 Z-0.1061
N344 X6.0843 Y0.9882 Z-0.1295
N345 X6.1716 Y1.0385 Z-0.1517
N346 X6.2462 Y1.0816 Z-0.1698
N347 X6.3209 Y1.1248 Z-0.1869
N348 X6.3958 Y1.168 Z-0.2031
N349 X6.4709 Y1.2113 Z-0.2185
N350 X6.5693 Y1.2682 Z-0.2373
N351 X6.6577 Y1.3192 Z-0.2528
N352 X6.7345 Y1.3635 Z-0.2653
N353 X6.81 Y1.4071 Z-0.2768
N354 X6.8987 Y1.4583 Z-0.2892
N355 X6.9993 Y1.5164 Z-0.3018
N356 X7.0895 Y1.5685 Z-0.3119
N357 X7.1655 Y1.6123 Z-0.3195
N358 X7.2428 Y1.657 Z-0.3264
N359 X7.345 Y1.716 Z-0.3343
N360 X7.4487 Y1.7759 Z-0.3407
N361 X7.5262 Y1.8206 Z-0.3446
N362 X7.6037 Y1.8654 Z-0.3477
N363 X7.6823 Y1.9107 Z-0.3499
N364 X7.7683 Y1.9604 Z-0.3515
N365 X7.874 Y2.0214 Z-0.352
N366 X7.8773 Y2.0233 Z-0.3517
N367 X7.8806 Y2.0252 Z-0.3508
N368 X7.8836 Y2.027 Z-0.3494
N369 X7.8867 Y2.0287 Z-0.348
N370 X7.8899 Y2.0306 Z-0.3472
N371 X7.8932 Y2.0325 Z-0.3469
N372 X8.0168 Y2.1039
N373 X8.0197 Y2.1056
N374 X8.0225 Y2.1075 Z-0.3468
N375 X8.0252 Y2.1095
N376 X8.0278 Y2.1116
N377 X8.0303 Y2.1138 Z-0.3467
N378 X8.0328 Y2.1162
N379 X8.0351 Y2.1186 Z-0.3466
N380 X8.0373 Y2.1212 Z-0.3465
N381 X8.0393 Y2.1238 Z-0.3464
N382 X8.0413 Y2.1266 Z-0.3463
N383 X8.0431 Y2.1294 Z-0.3462
N384 X8.0448 Y2.1323 Z-0.3461
N385 X8.0464 Y2.1353 Z-0.346
N386 X8.0479 Y2.1383 Z-0.3458
N387 X8.0492 Y2.1414 Z-0.3457
N388 X8.0503 Y2.1445 Z-0.3455
N389 X8.0513 Y2.1478 Z-0.3454
N390 X8.0522 Y2.151 Z-0.3452
N391 X8.0529 Y2.1543 Z-0.345
N392 X8.0535 Y2.1576 Z-0.3448
N393 X8.054 Y2.1609 Z-0.3446
N394 X8.0542 Y2.1643 Z-0.3444
N395 X8.0544 Y2.1676 Z-0.3442
N396 X8.0543 Y2.171 Z-0.344
N397 X8.0542 Y2.1743 Z-0.3438
N398 X8.0538 Y2.1777 Z-0.3436
N399 X8.0534 Y2.181 Z-0.3433
N400 X8.0528 Y2.1843 Z-0.3431
N401 X8.052 Y2.1876 Z-0.3429
N402 X8.0511 Y2.1908 Z-0.3426
N403 X8.05 Y2.194 Z-0.3424
N404 X8.0488 Y2.1971 Z-0.3422
N405 X8.0475 Y2.2002 Z-0.3419
N406 X8.046 Y2.2032 Z-0.3417
N407 X8.0444 Y2.2062 Z-0.3414
N408 X7.9942 Y2.293 Z-0.3341
N409 X7.9925 Y2.2959 Z-0.3339
N410 X7.9906 Y2.2987 Z-0.3336
N411 X7.9886 Y2.3014 Z-0.3334
N412 X7.9865 Y2.304 Z-0.3332
N413 X7.9843 Y2.3065 Z-0.3329
N414 X7.9819 Y2.3089 Z-0.3327
N415 X7.9795 Y2.3112 Z-0.3324
N416 X7.9769 Y2.3134 Z-0.3322
N417 X7.9743 Y2.3155 Z-0.332
N418 X7.9716 Y2.3174 Z-0.3318
N419 X7.9687 Y2.3192 Z-0.3316
N420 X7.9658 Y2.3209 Z-0.3313
N421 X7.9629 Y2.3225 Z-0.3311
N422 X7.9598 Y2.3239 Z-0.3309
N423 X7.9567 Y2.3252 Z-0.3307
N424 X7.9536 Y2.3264 Z-0.3306
N425 X7.9504 Y2.3274 Z-0.3304
N426 X7.9471 Y2.3283 Z-0.3302
N427 X7.9438 Y2.329 Z-0.33
N428 X7.9405 Y2.3296 Z-0.3299
N429 X7.9372 Y2.33 Z-0.3297
N430 X7.9338 Y2.3302 Z-0.3296
N431 X7.9305 Y2.3304 Z-0.3295
N432 X7.9271 Y2.3303 Z-0.3293
N433 X7.9238 Y2.3302 Z-0.3292
N434 X7.9204 Y2.3298 Z-0.3291
N435 X7.9171 Y2.3294 Z-0.329
N436 X7.9138 Y2.3287
N437 X7.9105 Y2.3279 Z-0.3289
N438 X7.9073 Y2.327 Z-0.3288
N439 X7.9041 Y2.326
N440 X7.9009 Y2.3248 Z-0.3287
N441 X7.8978 Y2.3234
N442 X7.8948 Y2.3219
N443 X7.8919 Y2.3203
N444 X7.8886 Y2.3184 Z-0.329
N445 X7.8854 Y2.3166 Z-0.3298
N446 X7.8823 Y2.3148 Z-0.3312
N447 X7.8797 Y2.3133 Z-0.3325
N448 X7.8769 Y2.3117 Z-0.3333
N449 X7.874 Y2.31 Z-0.3338
N450 X7.7821 Y2.257 Z-0.3397
N451 X7.6902 Y2.2039 Z-0.3444
N452 X7.6114 Y2.1584 Z-0.3475
N453 X7.525 Y2.1085 Z-0.35
N454 X7.4244 Y2.0504 Z-0.3517
N455 X7.3288 Y1.9952 Z-0.3519
N456 X7.2483 Y1.9488 Z-0.3512
N457 X7.1691 Y1.903 Z-0.3496
N458 X7.0907 Y1.8578 Z-0.3472
N459 X6.9883 Y1.7986 Z-0.3429
N460 X6.8859 Y1.7395 Z-0.337
N461 X6.8099 Y1.6956 Z-0.3317
N462 X6.7338 Y1.6517 Z-0.3256
N463 X6.6434 Y1.5995 Z-0.3174
N464 X6.5427 Y1.5414 Z-0.3068
N465 X6.4552 Y1.4908 Z-0.2964
N466 X6.3794 Y1.4471 Z-0.2865
N467 X6.3038 Y1.4034 Z-0.2758
N468 X6.2152 Y1.3523 Z-0.2623
N469 X6.1151 Y1.2945 Z-0.2455
N470 X6.0295 Y1.2451 Z-0.2298
N471 X5.9544 Y1.2017 Z-0.2151
N472 X5.8794 Y1.1584 Z-0.1996
N473 X5.7916 Y1.1077 Z-0.1803
N474 X5.6951 Y1.052 Z-0.1575
N475 X5.6233 Y1.0105 Z-0.1395
N476 X5.5503 Y0.9684 Z-0.1202
N477 X5.4775 Y0.9264 Z-0.1001
N478 X5.3921 Y0.8771 Z-0.0753
N479 X5.3097 Y0.8295 Z-0.0499
N480 X5.2749 Y0.8094 Z-0.0387
N481 X5.2728 Y0.8082 Z-0.0379
N482 X4.9474 Y0.6203 Z0.1081
N483 X4.9446 Y0.6188 Z0.1093
N484 X4.9418 Y0.6174 Z0.1104
N485 X4.9389 Y0.616 Z0.1115
N486 X4.9359 Y0.6148 Z0.1124
N487 X4.9328 Y0.6137 Z0.1133
N488 X4.9297 Y0.6127 Z0.114
N489 X4.9265 Y0.6118 Z0.1147
N490 X4.9233 Y0.6111 Z0.1153
N491 X4.92 Y0.6104 Z0.1158
N492 X4.9167 Y0.6099 Z0.1163
N493 X4.9134 Y0.6095 Z0.1166
N494 X4.9101 Y0.6091 Z0.1168
N495 X4.9067 Y0.609 Z0.117
N496 X4.9033 Y0.6089
N497 X4.9
N498 X4.8966 Y0.6091 Z0.1168
N499 X4.8933 Y0.6094 Z0.1166
N500 X4.8899 Y0.6098 Z0.1163
N501 X4.8867 Y0.6103 Z0.1159
N502 X4.8834 Y0.611 Z0.1154
N503 X4.8802 Y0.6117 Z0.1148
N504 X4.877 Y0.6126 Z0.1141
N505 X4.8738 Y0.6136 Z0.1134
N506 X4.8708 Y0.6147 Z0.1125
N507 X4.8678 Y0.6159 Z0.1116
N508 X4.8648 Y0.6172 Z0.1106
N509 X4.862 Y0.6186 Z0.1095
N510 X4.8592 Y0.6201 Z0.1083
N511 X4.8565 Y0.6217 Z0.1071
N512 X4.8539 Y0.6234 Z0.1058
N513 X4.8515 Y0.6252 Z0.1044
N514 X4.8491 Y0.6271 Z0.1029
N515 X4.8468 Y0.629 Z0.1014
N516 X4.8446 Y0.631 Z0.0998
N517 X4.8426 Y0.6332 Z0.0982
N518 X4.757 Y0.7256 Z0.0263
N519 X4.755 Y0.7278 Z0.0246
N520 X4.7532 Y0.73 Z0.0229
N521 X4.7516 Y0.7323 Z0.0211
N522 X4.75 Y0.7347 Z0.0192
N523 X4.7486 Y0.7371 Z0.0174
N524 X4.7474 Y0.7396 Z0.0155
N525 X4.7462 Y0.7421 Z0.0135
N526 X4.7453 Y0.7446 Z0.0115
N527 X4.7444 Y0.7472 Z0.0095
N528 X4.7437 Y0.7498 Z0.0075
N529 X4.7432 Y0.7524 Z0.0055
N530 X4.7428 Y0.755 Z0.0034
N531 X4.7426 Y0.7577 Z0.0014
N532 X4.7425 Y0.7603 Z-0.0007
N533 X4.7426 Y0.763 Z-0.0028
N534 X4.7428 Y0.7657 Z-0.0048
N535 X4.7431 Y0.7683 Z-0.0069
N536 X4.7437 Y0.7709 Z-0.0089
N537 X4.7443 Y0.7735 Z-0.011
N538 X4.7451 Y0.7761 Z-0.013
N539 X4.7461 Y0.7787 Z-0.0149
N540 X4.7472 Y0.7812 Z-0.0169
N541 X4.7484 Y0.7836 Z-0.0188
N542 X4.7498 Y0.7861 Z-0.0207
N543 X4.7513 Y0.7884 Z-0.0225
N544 X4.753 Y0.7907 Z-0.0243
N545 X4.7548 Y0.793 Z-0.0261
N546 X4.7567 Y0.7952 Z-0.0278
N547 X4.7587 Y0.7973 Z-0.0294
N548 X4.7609 Y0.7994 Z-0.031
N549 X4.7631 Y0.8013 Z-0.0326
N550 X4.7655 Y0.8032 Z-0.034
N551 X4.768 Y0.805 Z-0.0354
N552 X4.7706 Y0.8067 Z-0.0368
N553 X4.7732 Y0.8083 Z-0.038
N554 X4.7753 Y0.8095 Z-0.0388
N555 X4.8095 Y0.8293 Z-0.0498
N556 X4.892 Y0.8769 Z-0.0752
N557 X4.976 Y0.9254 Z-0.0996
N558 X5.0488 Y0.9674 Z-0.1198
N559 X5.1333 Y1.0162 Z-0.142
N560 X5.2296 Y1.0718 Z-0.1658
N561 X5.316 Y1.1217 Z-0.1857
N562 X5.3908 Y1.1649 Z-0.202
N563 X5.4762 Y1.2142 Z-0.2195
N564 X5.5734 Y1.2703 Z-0.2379
N565 X5.6604 Y1.3205 Z-0.2532
N566 X5.7358 Y1.3641 Z-0.2655
N567 X5.8218 Y1.4137 Z-0.2785
N568 X5.9078 Y1.4634 Z-0.2904
N569 X6.0097 Y1.5222 Z-0.303
N570 X6.0987 Y1.5736 Z-0.3128
N571 X6.1968 Y1.6302 Z-0.3225
N572 X6.299 Y1.6892 Z-0.3309
N573 X6.3882 Y1.7407 Z-0.3371
N574 X6.4892 Y1.7991 Z-0.3429
N575 X6.5917 Y1.8582 Z-0.3473
N576 X6.67 Y1.9034 Z-0.3496
N577 X6.755 Y1.9525 Z-0.3513
N578 X6.8548 Y2.0101 Z-0.3521
N579 X6.9539 Y2.0673 Z-0.3513
N580 X7.0344 Y2.1138 Z-0.3498
N581 X7.114 Y2.1598 Z-0.3475
N582 X7.1929 Y2.2053 Z-0.3443
N583 X7.2717 Y2.2508 Z-0.3402
N584 X7.3767 Y2.3114 Z-0.3336
N585 X7.4685 Y2.3644 Z-0.3264
N586 X7.5471 Y2.4098 Z-0.3194
N587 X7.6257 Y2.4552 Z-0.3115
N588 X7.7042 Y2.5005 Z-0.3027
N589 X7.7826 Y2.5458 Z-0.2931
N590 X7.874 Y2.5986 Z-0.2808
N591 X7.8788 Y2.6013 Z-0.2798 F24
N592 X7.8834 Y2.604 Z-0.2782
N593 X7.8879 Y2.6066 Z-0.2761
N594 X7.8921 Y2.609 Z-0.2734
N595 X7.8961 Y2.6113 Z-0.2701
N596 X7.8997 Y2.6134 Z-0.2664
N597 X7.9029 Y2.6152 Z-0.2622
N598 X7.9057 Y2.6169 Z-0.2576
N599 X7.908 Y2.6182 Z-0.2527
N600 X7.9099 Y2.6193 Z-0.2476
N601 X7.9112 Y2.62 Z-0.2422
N602 X7.912 Y2.6205 Z-0.2367
N603 X7.9123 Y2.6207 Z-0.2311
N604 G0 Z0.2
N605 X7.9095 Y2.9076
N606 Z-0.0986
N607 G1 Z-0.1414 F24
N608 X7.9093 Y2.9075 Z-0.1467
N609 X7.9085 Y2.9071 Z-0.152
N610 X7.9073 Y2.9064 Z-0.1572
N611 X7.9056 Y2.9054 Z-0.1621
N612 X7.9035 Y2.9041 Z-0.1669
N613 X7.9009 Y2.9027 Z-0.1713
N614 X7.8979 Y2.901 Z-0.1754
N615 X7.8946 Y2.899 Z-0.1791
N616 X7.891 Y2.8969 Z-0.1824
N617 X7.887 Y2.8947 Z-0.1852
N618 X7.8829 Y2.8923 Z-0.1875
N619 X7.8785 Y2.8897 Z-0.1893
N620 X7.874 Y2.8871 Z-0.1906
N621 X7.7719 Y2.8282 Z-0.2122 F60
N622 X7.6942 Y2.7833 Z-0.2275
N623 X7.6163 Y2.7383 Z-0.2419
N624 X7.5383 Y2.6933 Z-0.2554
N625 X7.4471 Y2.6407 Z-0.27
N626 X7.3559 Y2.588 Z-0.2833
N627 X7.2775 Y2.5427 Z-0.2938
N628 X7.1991 Y2.4975 Z-0.3033
N629 X7.1206 Y2.4521 Z-0.312
N630 X7.042 Y2.4068 Z-0.3199
N631 X6.9371 Y2.3462 Z-0.3291
N632 X6.8453 Y2.2932 Z-0.3357
N633 X6.7665 Y2.2477 Z-0.3405
N634 X6.6877 Y2.2022 Z-0.3445
N635 X6.6089 Y2.1567 Z-0.3476
N636 X6.5158 Y2.103 Z-0.3503
N637 X6.4085 Y2.041 Z-0.3518
N638 X6.3218 Y1.991 Z-0.3519
N639 X6.2346 Y1.9406 Z-0.351
N640 X6.1304 Y1.8805 Z-0.3486
N641 X6.0438 Y1.8305 Z-0.3454
N642 X5.9545 Y1.7789 Z-0.341
N643 X5.8666 Y1.7282 Z-0.3357
N644 X5.767 Y1.6707 Z-0.3284
N645 X5.6675 Y1.6132 Z-0.3197
N646 X5.5812 Y1.5634 Z-0.311
N647 X5.4805 Y1.5052 Z-0.2996
N648 X5.3827 Y1.4487 Z-0.2869
N649 X5.2966 Y1.3991 Z-0.2748
N650 X5.1964 Y1.3412 Z-0.2592
N651 X5.099 Y1.285 Z-0.2425
N652 X5.0134 Y1.2356 Z-0.2267
N653 X4.9163 Y1.1795 Z-0.2074
N654 X4.8311 Y1.1303 Z-0.1891
N655 X4.7474 Y1.082 Z-0.17
N656 X4.6613 Y1.0323 Z-0.1491
N657 X4.5665 Y0.9775 Z-0.1245
N658 X4.4848 Y0.9304 Z-0.1021
N659 X4.4007 Y0.8818 Z-0.0777
N660 X4.3068 Y0.8276 Z-0.0489
N661 X4.2757 Y0.8096 Z-0.0389
N662 X4.2736 Y0.8084 Z-0.0381
N663 X3.948 Y0.6205 Z0.108
N664 X3.9453 Y0.6189 Z0.1092
N665 X3.9424 Y0.6175 Z0.1103
N666 X3.9395 Y0.6162 Z0.1113
N667 X3.9365 Y0.615 Z0.1123
N668 X3.9334 Y0.6139 Z0.1131
N669 X3.9303 Y0.6129 Z0.1139
N670 X3.9271 Y0.612 Z0.1146
N671 X3.9239 Y0.6112 Z0.1152
N672 X3.9207 Y0.6106 Z0.1157
N673 X3.9174 Y0.61 Z0.1161
N674 X3.914 Y0.6096 Z0.1165
N675 X3.9107 Y0.6093 Z0.1167
N676 X3.9073 Y0.6091 Z0.1168
N677 X3.904 Y0.609 Z0.1169
N678 X3.9006 Y0.6091
N679 X3.8973 Y0.6093 Z0.1167
N680 X3.8939 Y0.6096 Z0.1165
N681 X3.8906 Y0.61 Z0.1162
N682 X3.8873 Y0.6105 Z0.1158
N683 X3.884 Y0.6111 Z0.1153
N684 X3.8808 Y0.6119 Z0.1147
N685 X3.8776 Y0.6128 Z0.114
N686 X3.8745 Y0.6137 Z0.1132
N687 X3.8714 Y0.6148 Z0.1124
N688 X3.8684 Y0.616 Z0.1115
N689 X3.8655 Y0.6173 Z0.1104
N690 X3.8626 Y0.6187 Z0.1094
N691 X3.8598 Y0.6202 Z0.1082
N692 X3.8572 Y0.6219 Z0.1069
N693 X3.8546 Y0.6235 Z0.1056
N694 X3.8521 Y0.6253 Z0.1042
N695 X3.8497 Y0.6272 Z0.1028
N696 X3.8474 Y0.6292 Z0.1013
N697 X3.8453 Y0.6312 Z0.0997
N698 X3.8432 Y0.6333 Z0.098
N699 X3.7576 Y0.7257 Z0.0262
N700 X3.7557 Y0.7279 Z0.0245
N701 X3.7539 Y0.7302 Z0.0228
N702 X3.7522 Y0.7325 Z0.021
N703 X3.7507 Y0.7348 Z0.0191
N704 X3.7493 Y0.7373 Z0.0172
N705 X3.748 Y0.7397 Z0.0153
N706 X3.7469 Y0.7422 Z0.0134
N707 X3.7459 Y0.7448 Z0.0114
N708 X3.7451 Y0.7473 Z0.0094
N709 X3.7444 Y0.7499 Z0.0074
N710 X3.7439 Y0.7526 Z0.0053
N711 X3.7435 Y0.7552 Z0.0033
N712 X3.7432 Y0.7579 Z0.0012
N713 X3.7431 Y0.7605 Z-0.0008
N714 X3.7432 Y0.7632 Z-0.0029
N715 X3.7434 Y0.7658 Z-0.005
N716 X3.7438 Y0.7685 Z-0.007
N717 X3.7443 Y0.7711 Z-0.009
N718 X3.745 Y0.7737 Z-0.0111
N719 X3.7458 Y0.7763 Z-0.0131
N720 X3.7467 Y0.7788 Z-0.0151
N721 X3.7479 Y0.7813 Z-0.017
N722 X3.7491 Y0.7838 Z-0.0189
N723 X3.7505 Y0.7862 Z-0.0208
N724 X3.752 Y0.7886 Z-0.0227
N725 X3.7536 Y0.7909 Z-0.0245
N726 X3.7554 Y0.7932 Z-0.0262
N727 X3.7573 Y0.7954 Z-0.0279
N728 X3.7594 Y0.7975 Z-0.0296
N729 X3.7615 Y0.7995 Z-0.0311
N730 X3.7638 Y0.8015 Z-0.0327
N731 X3.7662 Y0.8034 Z-0.0341
N732 X3.7686 Y0.8052 Z-0.0355
N733 X3.7712 Y0.8069 Z-0.0369
N734 X3.7739 Y0.8085 Z-0.0381
N735 X3.776 Y0.8097 Z-0.0389
N736 X3.8552 Y0.8555 Z-0.0639
N737 X3.9365 Y0.9024 Z-0.0882
N738 X4.0296 Y0.9561 Z-0.1145
N739 X4.1141 Y1.0049 Z-0.137
N740 X4.1974 Y1.053 Z-0.158
N741 X4.281 Y1.1013 Z-0.1778
N742 X4.3764 Y1.1564 Z-0.1989
N743 X4.4604 Y1.2049 Z-0.2163
N744 X4.5562 Y1.2602 Z-0.2348
N745 X4.6536 Y1.3164 Z-0.252
N746 X4.7394 Y1.3659 Z-0.266
N747 X4.837 Y1.4223 Z-0.2807
N748 X4.9348 Y1.4788 Z-0.2938
N749 X5.021 Y1.5285 Z-0.3043
N750 X5.1087 Y1.5791 Z-0.3139
N751 X5.2186 Y1.6426 Z-0.3243
N752 X5.3063 Y1.6933 Z-0.3314
N753 X5.3942 Y1.744 Z-0.3375
N754 X5.4925 Y1.8008 Z-0.3431
N755 X5.5936 Y1.8591 Z-0.3473
N756 X5.6826 Y1.9105 Z-0.35
N757 X5.7814 Y1.9675 Z-0.3517
N758 X5.8821 Y2.0256 Z-0.352
N759 X5.9693 Y2.076 Z-0.3511
N760 X6.0699 Y2.1341 Z-0.3489
N761 X6.175 Y2.1948 Z-0.3451
N762 X6.2669 Y2.2479 Z-0.3405
N763 X6.3457 Y2.2933 Z-0.3357
N764 X6.4375 Y2.3464 Z-0.3291
N765 X6.5424 Y2.4069 Z-0.3199
N766 X6.621 Y2.4523 Z-0.312
N767 X6.6995 Y2.4976 Z-0.3033
N768 X6.7779 Y2.5429 Z-0.2937
N769 X6.8563 Y2.5881 Z-0.2833
N770 X6.9476 Y2.6408 Z-0.27
N771 X7.0387 Y2.6934 Z-0.2553
N772 X7.1167 Y2.7385 Z-0.2419
N773 X7.1946 Y2.7834 Z-0.2275
N774 X7.2723 Y2.8283 Z-0.2121
N775 X7.3628 Y2.8806 Z-0.1931
N776 X7.4531 Y2.9327 Z-0.1727
N777 X7.5303 Y2.9773 Z-0.1541
N778 X7.6074 Y3.0218 Z-0.1346
N779 X7.6714 Y3.0587 Z-0.1176
N780 X7.7353 Y3.0956 Z-0.0998
N781 X7.799 Y3.1324 Z-0.0813
N782 X7.874 Y3.1757 Z-0.0586
N783 X7.8785 Y3.1783 Z-0.0569 F24
N784 X7.8829 Y3.1808 Z-0.0547
N785 X7.8869 Y3.1832 Z-0.0519
N786 X7.8907 Y3.1854 Z-0.0487
N787 X7.8942 Y3.1874 Z-0.0449
N788 X7.8973 Y3.1892 Z-0.0408
N789 X7.9 Y3.1907 Z-0.0363
N790 X7.9022 Y3.192 Z-0.0315
N791 X7.904 Y3.193 Z-0.0264
N792 X7.9053 Y3.1938 Z-0.0211
N793 X7.9061 Y3.1942 Z-0.0157
N794 X7.9063 Y3.1944 Z-0.0103
N795 G0 Z0.2
N796 X7.7126 Y3.3711
N797 Z0.0791
N798 G1 Z0.05 F24
N799 X7.7123 Y3.3709 Z0.0445
N800 X7.7115 Y3.3705 Z0.039
N801 X7.7102 Y3.3697 Z0.0336
N802 X7.7084 Y3.3686 Z0.0285
N803 X7.7061 Y3.3673 Z0.0236
N804 X7.7033 Y3.3657 Z0.0191
N805 X7.7001 Y3.3639 Z0.0149
N806 X7.6966 Y3.3618 Z0.0112
N807 X7.6927 Y3.3596 Z0.0079
N808 X7.6885 Y3.3572 Z0.0052
N809 X7.6841 Y3.3546 Z0.003
N810 X7.6795 Y3.352 Z0.0014
N811 X7.6747 Y3.3492 Z0.0004
N812 X7.6699 Y3.3465 Z0
N813 X7.6432 Y3.331 Z-0.0005 F60
N814 X7.6137 Y3.314 Z-0.0021
N815 X7.5843 Y3.297 Z-0.0049
N816 X7.555 Y3.2801 Z-0.009
N817 X7.5258 Y3.2632 Z-0.0143
N818 X7.4968 Y3.2465 Z-0.0209
N819 X7.468 Y3.2299 Z-0.0288
N820 X7.3692 Y3.1728 Z-0.0602
N821 X7.3057 Y3.1361 Z-0.0794
N822 X7.2419 Y3.0994 Z-0.098
N823 X7.1653 Y3.0551 Z-0.1193
N824 X7.1012 Y3.0181 Z-0.1362
N825 X7.037 Y2.981 Z-0.1525
N826 X6.9727 Y2.9439 Z-0.1681
N827 X6.8954 Y2.8993 Z-0.1859
N828 X6.8179 Y2.8545 Z-0.2027
N829 X6.7272 Y2.8022 Z-0.2212
N830 X6.6365 Y2.7498 Z-0.2384
N831 X6.5585 Y2.7048 Z-0.2521
N832 X6.4804 Y2.6597 Z-0.2648
N833 X6.4022 Y2.6145 Z-0.2767
N834 X6.3108 Y2.5618 Z-0.2895
N835 X6.2063 Y2.5014 Z-0.3026
N836 X6.1278 Y2.4561 Z-0.3113
N837 X6.0361 Y2.4032 Z-0.3205
N838 X5.9312 Y2.3426 Z-0.3295
N839 X5.8394 Y2.2896 Z-0.3361
N840 X5.7475 Y2.2365 Z-0.3416
N841 X5.6424 Y2.1759 Z-0.3465
N842 X5.5434 Y2.1187 Z-0.3496
N843 X5.4562 Y2.0684 Z-0.3513
N844 X5.3529 Y2.0087 Z-0.3521
N845 X5.2543 Y1.9518 Z-0.3513
N846 X5.1623 Y1.8987 Z-0.3495
N847 X5.0553 Y1.8369 Z-0.3459
N848 X4.9583 Y1.7809 Z-0.3412
N849 X4.8717 Y1.7309 Z-0.3361
N850 X4.7735 Y1.6742 Z-0.3289
N851 X4.6766 Y1.6183 Z-0.3205
N852 X4.5903 Y1.5684 Z-0.3119
N853 X4.4909 Y1.5111 Z-0.3008
N854 X4.393 Y1.4545 Z-0.2883
N855 X4.3083 Y1.4056 Z-0.2764
N856 X4.2094 Y1.3485 Z-0.2612
N857 X4.1133 Y1.293 Z-0.245
N858 X4.0277 Y1.2436 Z-0.2294
N859 X3.9436 Y1.195 Z-0.2129
N860 X3.8467 Y1.1391 Z-0.1925
N861 X3.7527 Y1.0848 Z-0.1711
N862 X3.6692 Y1.0366 Z-0.1509
N863 X3.5757 Y0.9826 Z-0.1269
N864 X3.4939 Y0.9354 Z-0.1046
N865 X3.4137 Y0.8891 Z-0.0815
N866 X3.3325 Y0.8422 Z-0.0568
N867 X3.2764 Y0.8098 Z-0.039
N868 X3.2743 Y0.8086 Z-0.0382
N869 X2.9481 Y0.6203 Z0.1071
N870 X2.9454 Y0.6188 Z0.1083
N871 X2.9425 Y0.6174 Z0.1094
N872 X2.9396 Y0.6161 Z0.1104
N873 X2.9366 Y0.6148 Z0.1114
N874 X2.9335 Y0.6137 Z0.1122
N875 X2.9304 Y0.6127 Z0.113
N876 X2.9272 Y0.6119 Z0.1137
N877 X2.924 Y0.6111 Z0.1143
N878 X2.9208 Y0.6104 Z0.1148
N879 X2.9175 Y0.6099 Z0.1152
N880 X2.9141 Y0.6095 Z0.1155
N881 X2.9108 Y0.6092 Z0.1157
N882 X2.9074 Y0.609 Z0.1159
N883 X2.9041 Y0.6089
N884 X2.9007 Y0.609
N885 X2.8973 Y0.6091 Z0.1157
N886 X2.894 Y0.6094 Z0.1155
N887 X2.8907 Y0.6098 Z0.1152
N888 X2.8874 Y0.6104 Z0.1148
N889 X2.8841 Y0.611 Z0.1143
N890 X2.8809 Y0.6118 Z0.1137
N891 X2.8777 Y0.6127 Z0.113
N892 X2.8746 Y0.6136 Z0.1123
N893 X2.8715 Y0.6147 Z0.1114
N894 X2.8685 Y0.616 Z0.1105
N895 X2.8656 Y0.6173 Z0.1095
N896 X2.8627 Y0.6187 Z0.1084
N897 X2.86 Y0.6202 Z0.1072
N898 X2.8573 Y0.6218 Z0.106
N899 X2.8547 Y0.6235 Z0.1047
N900 X2.8522 Y0.6253 Z0.1033
N901 X2.8498 Y0.6272 Z0.1018
N902 X2.8475 Y0.6291 Z0.1003
N903 X2.8454 Y0.6312 Z0.0987
N904 X2.8433 Y0.6333 Z0.0971
N905 X2.7582 Y0.7257 Z0.0258
N906 X2.7563 Y0.7279 Z0.0241
N907 X2.7545 Y0.7302 Z0.0223
N908 X2.7528 Y0.7325 Z0.0206
N909 X2.7513 Y0.7349 Z0.0187
N910 X2.7499 Y0.7373 Z0.0169
N911 X2.7486 Y0.7398 Z0.015
N912 X2.7475 Y0.7423 Z0.013
N913 X2.7465 Y0.7448 Z0.011
N914 X2.7457 Y0.7474 Z0.009
N915 X2.745 Y0.75 Z0.007
N916 X2.7445 Y0.7526 Z0.005
N917 X2.7441 Y0.7553 Z0.003
N918 X2.7439 Y0.7579 Z0.0009
N919 X2.7438 Y0.7606 Z-0.0011
N920 X2.7439 Y0.7633 Z-0.0032
N921 X2.7441 Y0.7659 Z-0.0053
N922 X2.7444 Y0.7686 Z-0.0073
N923 X2.745 Y0.7712 Z-0.0093
N924 X2.7456 Y0.7738 Z-0.0113
N925 X2.7464 Y0.7764 Z-0.0133
N926 X2.7474 Y0.779 Z-0.0153
N927 X2.7485 Y0.7815 Z-0.0173
N928 X2.7498 Y0.784 Z-0.0192
N929 X2.7512 Y0.7864 Z-0.021
N930 X2.7527 Y0.7888 Z-0.0229
N931 X2.7543 Y0.7911 Z-0.0247
N932 X2.7561 Y0.7933 Z-0.0264
N933 X2.758 Y0.7955 Z-0.0281
N934 X2.7601 Y0.7977 Z-0.0297
N935 X2.7622 Y0.7997 Z-0.0313
N936 X2.7645 Y0.8017 Z-0.0328
N937 X2.7669 Y0.8036 Z-0.0343
N938 X2.7693 Y0.8054 Z-0.0357
N939 X2.7719 Y0.8071 Z-0.037
N940 X2.7746 Y0.8087 Z-0.0382
N941 X2.7767 Y0.8099 Z-0.039
N942 X2.859 Y0.8574 Z-0.0649
N943 X2.9504 Y0.9102 Z-0.0922
N944 X3.0436 Y0.964 Z-0.1182
N945 X3.1241 Y1.0105 Z-0.1395
N946 X3.2178 Y1.0646 Z-0.1628
N947 X3.313 Y1.1195 Z-0.1849
N948 X3.3969 Y1.168 Z-0.2032
N949 X3.4925 Y1.2232 Z-0.2226
N950 X3.5897 Y1.2793 Z-0.2408
N951 X3.6741 Y1.328 Z-0.2554
N952 X3.7717 Y1.3844 Z-0.271
N953 X3.8694 Y1.4408 Z-0.2851
N954 X3.9672 Y1.4973 Z-0.2979
N955 X4.0652 Y1.5538 Z-0.3093
N956 X4.1646 Y1.6112 Z-0.3194
N957 X4.2511 Y1.6611 Z-0.3271
N958 X4.3598 Y1.7239 Z-0.3353
N959 X4.4594 Y1.7814 Z-0.3413
N960 X4.5447 Y1.8306 Z-0.3454
N961 X4.6419 Y1.8868 Z-0.3489
N962 X4.7407 Y1.9438 Z-0.3511
N963 X4.8346 Y1.998 Z-0.352
N964 X4.9363 Y2.0567 Z-0.3516
N965 X5.0302 Y2.1109 Z-0.3499
N966 X5.1163 Y2.1607 Z-0.3474
N967 X5.2083 Y2.2138 Z-0.3436
N968 X5.3133 Y2.2744 Z-0.3378
N969 X5.4052 Y2.3275 Z-0.3315
N970 X5.497 Y2.3805 Z-0.3241
N971 X5.6018 Y2.441 Z-0.3141
N972 X5.6934 Y2.4939 Z-0.3041
N973 X5.7849 Y2.5467 Z-0.2929
N974 X5.8893 Y2.607 Z-0.2787
N975 X5.9806 Y2.6597 Z-0.2649
N976 X6.0717 Y2.7123 Z-0.2499
N977 X6.1626 Y2.7648 Z-0.2336
N978 X6.2533 Y2.8171 Z-0.216
N979 X6.331 Y2.862 Z-0.2
N980 X6.4084 Y2.9067 Z-0.183
N981 X6.4986 Y2.9588 Z-0.162
N982 X6.5886 Y3.0107 Z-0.1396
N983 X6.6655 Y3.0551 Z-0.1193
N984 X6.7421 Y3.0994 Z-0.098
N985 X6.8058 Y3.1361 Z-0.0794
N986 X6.8694 Y3.1728 Z-0.0602
N987 X6.9682 Y3.2299 Z-0.0288
N988 X6.997 Y3.2465 Z-0.0209
N989 X7.026 Y3.2632 Z-0.0143
N990 X7.0552 Y3.2801 Z-0.009
N991 X7.0845 Y3.297 Z-0.0049
N992 X7.1139 Y3.314 Z-0.0021
N993 X7.1434 Y3.331 Z-0.0005
N994 X7.1701 Y3.3465 Z0
N995 X7.1733 Y3.3483 Z0.0003
N996 X7.1764 Y3.3501 Z0.0012
N997 X7.1793 Y3.3518 Z0.0025
N998 X7.1824 Y3.3535 Z0.004
N999 X7.1856 Y3.3554 Z0.0048
N1000 X7.1888 Y3.3573 Z0.0051
N1001 G3 X7.2163 Y3.4597 I-0.0375 J0.065
N1002 G1 X7.1663 Y3.5462
N1003 G3 X7.0639 Y3.5737 I-0.065 J-0.0375
N1004 G1 X6.689 Y3.3573
N1005 X6.6858 Y3.3554 Z0.0048
N1006 X6.6826 Y3.3535 Z0.004
N1007 X6.6795 Y3.3518 Z0.0025
N1008 X6.6766 Y3.3501 Z0.0012
N1009 X6.6735 Y3.3483 Z0.0003
N1010 X6.6703 Y3.3465 Z0
N1011 X6.6436 Y3.331 Z-0.0005
N1012 X6.6141 Y3.314 Z-0.0021
N1013 X6.5847 Y3.297 Z-0.0049
N1014 X6.5554 Y3.2801 Z-0.009
N1015 X6.5262 Y3.2632 Z-0.0143
N1016 X6.4972 Y3.2465 Z-0.0209
N1017 X6.4684 Y3.2299 Z-0.0288
N1018 X6.3696 Y3.1728 Z-0.0602
N1019 X6.306 Y3.1361 Z-0.0794
N1020 X6.2423 Y3.0994 Z-0.098
N1021 X6.1656 Y3.0551 Z-0.1193
N1022 X6.0888 Y3.0107 Z-0.1396
N1023 X5.9988 Y2.9588 Z-0.162
N1024 X5.9086 Y2.9067 Z-0.183
N1025 X5.8312 Y2.862 Z-0.2
N1026 X5.7535 Y2.8171 Z-0.216
N1027 X5.6628 Y2.7648 Z-0.2336
N1028 X5.5718 Y2.7123 Z-0.2499
N1029 X5.4807 Y2.6597 Z-0.2649
N1030 X5.3895 Y2.607 Z-0.2787
N1031 X5.2851 Y2.5467 Z-0.2929
N1032 X5.1936 Y2.4939 Z-0.3041
N1033 X5.102 Y2.441 Z-0.3141
N1034 X4.9972 Y2.3805 Z-0.3241
N1035 X4.9054 Y2.3275 Z-0.3315
N1036 X4.8135 Y2.2744 Z-0.3378
N1037 X4.7085 Y2.2138 Z-0.3436
N1038 X4.6165 Y2.1607 Z-0.3474
N1039 X4.5236 Y2.1071 Z-0.3501
N1040 X4.423 Y2.049 Z-0.3518
N1041 X4.3209 Y1.99 Z-0.3519
N1042 X4.2203 Y1.932 Z-0.3508
N1043 X4.1191 Y1.8735 Z-0.3482
N1044 X4.022 Y1.8175 Z-0.3444
N1045 X3.9237 Y1.7607 Z-0.3393
N1046 X3.8267 Y1.7047 Z-0.3329
N1047 X3.7285 Y1.648 Z-0.3251
N1048 X3.629 Y1.5905 Z-0.3159
N1049 X3.5309 Y1.5339 Z-0.3054
N1050 X3.433 Y1.4774 Z-0.2935
N1051 X3.3352 Y1.4209 Z-0.2803
N1052 X3.2375 Y1.3645 Z-0.2656
N1053 X3.14 Y1.3083 Z-0.2496
N1054 X3.0427 Y1.2521 Z-0.2321
N1055 X2.947 Y1.1968 Z-0.2135
N1056 X2.8501 Y1.1408 Z-0.1931
N1057 X2.7547 Y1.0858 Z-0.1715
N1058 X2.661 Y1.0317 Z-0.1488
N1059 X2.5675 Y0.9777 Z-0.1246
N1060 X2.4756 Y0.9246 Z-0.0993
N1061 X2.384 Y0.8718 Z-0.0725
N1062 X2.2928 Y0.8191 Z-0.0442
N1063 X2.277 Y0.81 Z-0.0391
N1064 X2.2725 Y0.8074 Z-0.0374 F24
N1065 X2.2683 Y0.8049 Z-0.0351
N1066 X2.2643 Y0.8026 Z-0.0323
N1067 X2.2605 Y0.8005 Z-0.029
N1068 X2.2571 Y0.7985 Z-0.0253
N1069 X2.2541 Y0.7968 Z-0.0212
N1070 X2.2515 Y0.7952 Z-0.0167
N1071 X2.2493 Y0.794 Z-0.0119
N1072 X2.2475 Y0.793 Z-0.0069
N1073 X2.2463 Y0.7922 Z-0.0017
N1074 X2.2455 Y0.7918 Z0.0037
N1075 X2.2453 Y0.7917 Z0.0091
N1076 G0 Z0.2
N1077 X1.9814 Y0.9279
N1078 Z0.0061
N1079 G1 Z-0.082 F24
N1080 X1.9817 Y0.928 Z-0.0859
N1081 X1.9825 Y0.9285 Z-0.0897
N1082 X1.9837 Y0.9292 Z-0.0933
N1083 X1.9855 Y0.9302 Z-0.0966
N1084 X1.9876 Y0.9315 Z-0.0995
N1085 X1.9901 Y0.9329 Z-0.1021
N1086 X1.993 Y0.9346 Z-0.1042
N1087 X2.0199 Y0.9501 Z-0.1117 F60
N1088 X2.1119 Y1.0032 Z-0.1363
N1089 X2.2068 Y1.058 Z-0.1601
N1090 X2.302 Y1.113 Z-0.1824
N1091 X2.3975 Y1.1681 Z-0.2032
N1092 X2.4958 Y1.2249 Z-0.2232
N1093 X2.5917 Y1.2802 Z-0.2411
N1094 X2.6891 Y1.3365 Z-0.2578
N1095 X2.7867 Y1.3928 Z-0.2732
N1096 X2.8844 Y1.4492 Z-0.2871
N1097 X2.9836 Y1.5065 Z-0.2998
N1098 X3.0816 Y1.5631 Z-0.311
N1099 X3.1797 Y1.6197 Z-0.3208
N1100 X3.2779 Y1.6764 Z-0.3292
N1101 X3.3762 Y1.7332 Z-0.3363
N1102 X3.4745 Y1.7899 Z-0.3421
N1103 X3.5834 Y1.8528 Z-0.347
N1104 X3.6817 Y1.9096 Z-0.35
N1105 X3.7805 Y1.9666 Z-0.3517
N1106 X3.883 Y2.0258 Z-0.352
N1107 X3.9769 Y2.08 Z-0.3511
N1108 X4.0904 Y2.1455 Z-0.3483
N1109 X4.1824 Y2.1986 Z-0.3448
N1110 X4.2743 Y2.2517 Z-0.3402
N1111 X4.3793 Y2.3123 Z-0.3335
N1112 X4.4711 Y2.3653 Z-0.3263
N1113 X4.5629 Y2.4183 Z-0.318
N1114 X4.6676 Y2.4788 Z-0.3071
N1115 X4.7592 Y2.5316 Z-0.2962
N1116 X4.8506 Y2.5844 Z-0.2842
N1117 X4.9549 Y2.6446 Z-0.269
N1118 X5.046 Y2.6973 Z-0.2543
N1119 X5.137 Y2.7498 Z-0.2384
N1120 X5.2408 Y2.8097 Z-0.2187
N1121 X5.3314 Y2.862 Z-0.2
N1122 X5.4088 Y2.9067 Z-0.183
N1123 X5.499 Y2.9588 Z-0.162
N1124 X5.5889 Y3.0107 Z-0.1396
N1125 X5.6658 Y3.0551 Z-0.1193
N1126 X5.7425 Y3.0994 Z-0.098
N1127 X5.8062 Y3.1361 Z-0.0794
N1128 X5.8698 Y3.1728 Z-0.0602
N1129 X5.9686 Y3.2299 Z-0.0288
N1130 X5.9973 Y3.2465 Z-0.0209
N1131 X6.0263 Y3.2632 Z-0.0143
N1132 X6.0555 Y3.2801 Z-0.009
N1133 X6.0849 Y3.297 Z-0.0049
N1134 X6.1143 Y3.314 Z-0.0021
N1135 X6.1438 Y3.331 Z-0.0005
N1136 X6.1705 Y3.3465 Z0
N1137 X6.1737 Y3.3483 Z0.0003
N1138 X6.1767 Y3.3501 Z0.0012
N1139 X6.1797 Y3.3518 Z0.0025
N1140 X6.1827 Y3.3535 Z0.004
N1141 X6.1859 Y3.3554 Z0.0048
N1142 X6.1892 Y3.3573 Z0.0051
N1143 G3 X6.2167 Y3.4597 I-0.0375 J0.065
N1144 G1 X6.1667 Y3.5462
N1145 G3 X6.0643 Y3.5737 I-0.065 J-0.0375
N1146 G1 X5.6894 Y3.3573
N1147 X5.6861 Y3.3554 Z0.0048
N1148 X5.6829 Y3.3535 Z0.004
N1149 X5.6799 Y3.3518 Z0.0025
N1150 X5.6769 Y3.3501 Z0.0012
N1151 X5.6738 Y3.3483 Z0.0003
N1152 X5.6707 Y3.3465 Z0
N1153 X5.644 Y3.331 Z-0.0005
N1154 X5.6145 Y3.314 Z-0.0021
N1155 X5.585 Y3.297 Z-0.0049
N1156 X5.5557 Y3.2801 Z-0.009
N1157 X5.5265 Y3.2632 Z-0.0143
N1158 X5.4975 Y3.2465 Z-0.0209
N1159 X5.4688 Y3.2299 Z-0.0288
N1160 X5.3699 Y3.1728 Z-0.0602
N1161 X5.3064 Y3.1361 Z-0.0794
N1162 X5.2299 Y3.092 Z-0.1016
N1163 X5.1532 Y3.0477 Z-0.1227
N1164 X5.0635 Y2.9959 Z-0.1461
N1165 X4.9735 Y2.9439 Z-0.1681
N1166 X4.8961 Y2.8993 Z-0.1859
N1167 X4.8057 Y2.847 Z-0.2055
N1168 X4.7021 Y2.7872 Z-0.2262
N1169 X4.6112 Y2.7348 Z-0.243
N1170 X4.5202 Y2.6822 Z-0.2586
N1171 X4.429 Y2.6296 Z-0.2729
N1172 X4.3246 Y2.5693 Z-0.2878
N1173 X4.2201 Y2.509 Z-0.3011
N1174 X4.1154 Y2.4485 Z-0.3127
N1175 X4.0237 Y2.3956 Z-0.3217
N1176 X3.9189 Y2.335 Z-0.3305
N1177 X3.827 Y2.282 Z-0.337
N1178 X3.7351 Y2.229 Z-0.3423
N1179 X3.63 Y2.1683 Z-0.347
N1180 X3.5374 Y2.1148 Z-0.3498
N1181 X3.4435 Y2.0606 Z-0.3516
N1182 X3.3339 Y1.9973 Z-0.352
N1183 X3.2333 Y1.9392 Z-0.351
N1184 X3.1318 Y1.8806 Z-0.3486
N1185 X3.0346 Y1.8245 Z-0.345
N1186 X2.9376 Y1.7685 Z-0.3401
N1187 X2.8275 Y1.7049 Z-0.333
N1188 X2.7279 Y1.6474 Z-0.3251
N1189 X2.6297 Y1.5908 Z-0.3159
N1190 X2.5317 Y1.5342 Z-0.3054
N1191 X2.4338 Y1.4776 Z-0.2936
N1192 X2.336 Y1.4212 Z-0.2804
N1193 X2.237 Y1.364 Z-0.2655
N1194 X2.1395 Y1.3077 Z-0.2495
N1195 X2.0408 Y1.2508 Z-0.2317
N1196 X1.9424 Y1.1939 Z-0.2125
N1197 X1.8455 Y1.138 Z-0.1921
N1198 X1.8373 Y1.1332 Z-0.1902
N1199 X1.835 Y1.1319 Z-0.186 F24
N1200 X1.8332 Y1.1309 Z-0.1815
N1201 X1.8317 Y1.13 Z-0.1768
N1202 X1.8306 Y1.1294 Z-0.172
N1203 X1.83 Y1.129 Z-0.1671
N1204 X1.8298 Y1.1289 Z-0.1621
N1205 G0 Z0.2
N1206 X1.7055 Y1.3457
N1207 Z-0.092
N1208 G1 Z-0.2565 F24
N1209 X1.7056 Y1.3458 Z-0.258
N1210 X1.706 Y1.346 Z-0.2594
N1211 X1.7067 Y1.3464 Z-0.2607
N1212 X1.7341 Y1.3622 Z-0.265 F60
N1213 X1.8318 Y1.4186 Z-0.2797
N1214 X1.9322 Y1.4766 Z-0.2934
N1215 X2.0301 Y1.5332 Z-0.3053
N1216 X2.1295 Y1.5905 Z-0.3159
N1217 X2.2277 Y1.6472 Z-0.325
N1218 X2.3273 Y1.7047 Z-0.3329
N1219 X2.4374 Y1.7683 Z-0.3401
N1220 X2.5344 Y1.8243 Z-0.345
N1221 X2.6316 Y1.8804 Z-0.3486
N1222 X2.7331 Y1.939 Z-0.351
N1223 X2.8337 Y1.9971 Z-0.352
N1224 X2.9437 Y2.0606 Z-0.3516
N1225 X3.0376 Y2.1148 Z-0.3498
N1226 X3.1302 Y2.1683 Z-0.347
N1227 X3.2353 Y2.229 Z-0.3423
N1228 X3.3272 Y2.282 Z-0.337
N1229 X3.4322 Y2.3426 Z-0.3296
N1230 X3.5371 Y2.4032 Z-0.3205
N1231 X3.6418 Y2.4637 Z-0.31
N1232 X3.7334 Y2.5165 Z-0.2995
N1233 X3.8248 Y2.5693 Z-0.2878
N1234 X3.9292 Y2.6296 Z-0.2729
N1235 X4.0204 Y2.6822 Z-0.2586
N1236 X4.1114 Y2.7348 Z-0.243
N1237 X4.2023 Y2.7872 Z-0.2262
N1238 X4.3059 Y2.8471 Z-0.2055
N1239 X4.3963 Y2.8993 Z-0.1859
N1240 X4.4736 Y2.9439 Z-0.1681
N1241 X4.5508 Y2.9885 Z-0.1493
N1242 X4.6406 Y3.0403 Z-0.1262
N1243 X4.7301 Y3.092 Z-0.1016
N1244 X4.8066 Y3.1361 Z-0.0794
N1245 X4.8701 Y3.1728 Z-0.0602
N1246 X4.969 Y3.2299 Z-0.0288
N1247 X4.9977 Y3.2465 Z-0.0209
N1248 X5.0267 Y3.2632 Z-0.0143
N1249 X5.0559 Y3.2801 Z-0.009
N1250 X5.0852 Y3.297 Z-0.0049
N1251 X5.1147 Y3.314 Z-0.0021
N1252 X5.1441 Y3.331 Z-0.0005
N1253 X5.1709 Y3.3465 Z0
N1254 X5.174 Y3.3483 Z0.0003
N1255 X5.1771 Y3.3501 Z0.0012
N1256 X5.1801 Y3.3518 Z0.0025
N1257 X5.1831 Y3.3535 Z0.004
N1258 X5.1863 Y3.3554 Z0.0048
N1259 X5.1896 Y3.3573 Z0.0051
N1260 G3 X5.217 Y3.4597 I-0.0375 J0.065
N1261 G1 X5.1671 Y3.5462
N1262 G3 X5.0646 Y3.5737 I-0.065 J-0.0375
N1263 G1 X4.6898 Y3.3573
N1264 X4.6865 Y3.3554 Z0.0048
N1265 X4.6833 Y3.3535 Z0.004
N1266 X4.6802 Y3.3518 Z0.0025
N1267 X4.6773 Y3.3501 Z0.0012
N1268 X4.6742 Y3.3483 Z0.0003
N1269 X4.671 Y3.3465 Z0
N1270 X4.6443 Y3.331 Z-0.0005
N1271 X4.6148 Y3.314 Z-0.0021
N1272 X4.5854 Y3.297 Z-0.0049
N1273 X4.5561 Y3.2801 Z-0.009
N1274 X4.5269 Y3.2632 Z-0.0143
N1275 X4.4979 Y3.2465 Z-0.0209
N1276 X4.4691 Y3.2299 Z-0.0288
N1277 X4.3703 Y3.1728 Z-0.0602
N1278 X4.3068 Y3.1361 Z-0.0794
N1279 X4.2431 Y3.0994 Z-0.098
N1280 X4.1664 Y3.0551 Z-0.1193
N1281 X4.0767 Y3.0033 Z-0.1429
N1282 X3.9867 Y2.9514 Z-0.1651
N1283 X3.9094 Y2.9067 Z-0.183
N1284 X3.8319 Y2.862 Z-0.2
N1285 X3.7413 Y2.8097 Z-0.2187
N1286 X3.6376 Y2.7498 Z-0.2384
N1287 X3.5466 Y2.6973 Z-0.2543
N1288 X3.4555 Y2.6446 Z-0.2689
N1289 X3.3511 Y2.5844 Z-0.2842
N1290 X3.2597 Y2.5316 Z-0.2962
N1291 X3.1682 Y2.4788 Z-0.3071
N1292 X3.0634 Y2.4183 Z-0.318
N1293 X2.9717 Y2.3653 Z-0.3263
N1294 X2.8799 Y2.3123 Z-0.3334
N1295 X2.7749 Y2.2517 Z-0.3402
N1296 X2.6829 Y2.1986 Z-0.3448
N1297 X2.6041 Y2.1531 Z-0.3479
N1298 X2.4976 Y2.0916 Z-0.3507
N1299 X2.3969 Y2.0335 Z-0.3519
N1300 X2.2933 Y1.9736 Z-0.3518
N1301 X2.1935 Y1.9161 Z-0.3502
N1302 X2.0946 Y1.8589 Z-0.3474
N1303 X1.9975 Y1.8029 Z-0.3433
N1304 X1.8978 Y1.7453 Z-0.3377
N1305 X1.7982 Y1.6878 Z-0.3308
N1306 X1.6986 Y1.6303 Z-0.3225
N1307 X1.6043 Y1.5759 Z-0.3133
N1308 G0 Z0.2
N1309 X1.4633 Y1.783
N1310 Z-0.1156
N1311 G1 Z-0.3415 F24
N1312 X1.5458 Y1.8307 Z-0.3455 F60
N1313 X1.6446 Y1.8877 Z-0.349
N1314 X1.7461 Y1.9463 Z-0.3512
N1315 X1.8502 Y2.0064 Z-0.3521
N1316 X1.9575 Y2.0684 Z-0.3514
N1317 X2.0514 Y2.1226 Z-0.3495
N1318 X2.1569 Y2.1835 Z-0.3459
N1319 X2.2488 Y2.2365 Z-0.3416
N1320 X2.3407 Y2.2896 Z-0.3362
N1321 X2.4457 Y2.3502 Z-0.3285
N1322 X2.5374 Y2.4032 Z-0.3205
N1323 X2.6291 Y2.4561 Z-0.3114
N1324 X2.7337 Y2.5165 Z-0.2994
N1325 X2.8252 Y2.5693 Z-0.2878
N1326 X2.9296 Y2.6296 Z-0.2729
N1327 X3.0338 Y2.6897 Z-0.2565
N1328 X3.1248 Y2.7423 Z-0.2407
N1329 X3.2156 Y2.7947 Z-0.2237
N1330 X3.3062 Y2.8471 Z-0.2055
N1331 X3.3967 Y2.8993 Z-0.1859
N1332 X3.4869 Y2.9514 Z-0.1651
N1333 X3.5769 Y3.0033 Z-0.1429
N1334 X3.6666 Y3.0551 Z-0.1193
N1335 X3.7432 Y3.0994 Z-0.098
N1336 X3.807 Y3.1361 Z-0.0794
N1337 X3.8705 Y3.1728 Z-0.0602
N1338 X3.9693 Y3.2299 Z-0.0288
N1339 X3.9981 Y3.2465 Z-0.0209
N1340 X4.0271 Y3.2632 Z-0.0143
N1341 X4.0563 Y3.2801 Z-0.009
N1342 X4.0856 Y3.297 Z-0.0049
N1343 X4.115 Y3.314 Z-0.0021
N1344 X4.1445 Y3.331 Z-0.0005
N1345 X4.1712 Y3.3465 Z0
N1346 X4.1744 Y3.3483 Z0.0003
N1347 X4.1775 Y3.3501 Z0.0012
N1348 X4.1804 Y3.3518 Z0.0025
N1349 X4.1835 Y3.3535 Z0.004
N1350 X4.1867 Y3.3554 Z0.0048
N1351 X4.1899 Y3.3573 Z0.0051
N1352 G3 X4.2174 Y3.4597 I-0.0375 J0.065
N1353 G1 X4.1674 Y3.5462
N1354 G3 X4.065 Y3.5737 I-0.065 J-0.0375
N1355 G1 X3.6901 Y3.3573
N1356 X3.6869 Y3.3554 Z0.0048
N1357 X3.6837 Y3.3535 Z0.004
N1358 X3.6806 Y3.3518 Z0.0025
N1359 X3.6777 Y3.3501 Z0.0012
N1360 X3.6746 Y3.3483 Z0.0003
N1361 X3.6714 Y3.3465 Z0
N1362 X3.6447 Y3.331 Z-0.0005
N1363 X3.6152 Y3.314 Z-0.0021
N1364 X3.5858 Y3.297 Z-0.0049
N1365 X3.5564 Y3.2801 Z-0.009
N1366 X3.5273 Y3.2632 Z-0.0143
N1367 X3.4983 Y3.2465 Z-0.0209
N1368 X3.4695 Y3.2299 Z-0.0288
N1369 X3.3707 Y3.1728 Z-0.0602
N1370 X3.3071 Y3.1361 Z-0.0794
N1371 X3.2434 Y3.0994 Z-0.098
N1372 X3.1668 Y3.0551 Z-0.1193
N1373 X3.0771 Y3.0033 Z-0.1429
N1374 X2.9871 Y2.9514 Z-0.165
N1375 X2.8969 Y2.8993 Z-0.1859
N1376 X2.8064 Y2.8471 Z-0.2055
N1377 X2.7158 Y2.7947 Z-0.2237
N1378 X2.625 Y2.7423 Z-0.2407
N1379 X2.534 Y2.6898 Z-0.2565
N1380 X2.4428 Y2.6371 Z-0.2709
N1381 X2.3515 Y2.5844 Z-0.2842
N1382 X2.247 Y2.5241 Z-0.2978
N1383 X2.1555 Y2.4712 Z-0.3085
N1384 X2.0507 Y2.4108 Z-0.3193
N1385 X1.959 Y2.3578 Z-0.3274
N1386 X1.8671 Y2.3048 Z-0.3344
N1387 X1.7621 Y2.2441 Z-0.3409
N1388 X1.6702 Y2.1911 Z-0.3454
N1389 X1.565 Y2.1303 Z-0.3491
N1390 X1.4577 Y2.0684 Z-0.3514
N1391 X1.3504 Y2.0064 Z-0.3521
N1392 X1.2837 Y1.9679 Z-0.3517
N1393 G0 Z0.2
N1394 X1.0617 Y2.1283
N1395 Z-0.1165
N1396 G1 Z-0.3492 F24
N1397 X1.1047 Y2.1531 Z-0.3479 F60
N1398 X1.1835 Y2.1986 Z-0.3448
N1399 X1.2755 Y2.2517 Z-0.3402
N1400 X1.3805 Y2.3123 Z-0.3334
N1401 X1.4723 Y2.3654 Z-0.3263
N1402 X1.5771 Y2.4259 Z-0.3167
N1403 X1.6687 Y2.4788 Z-0.3071
N1404 X1.7603 Y2.5316 Z-0.2962
N1405 X1.8647 Y2.5919 Z-0.2824
N1406 X1.956 Y2.6447 Z-0.2689
N1407 X2.0472 Y2.6973 Z-0.2543
N1408 X2.1381 Y2.7498 Z-0.2384
N1409 X2.2289 Y2.8022 Z-0.2212
N1410 X2.3325 Y2.862 Z-0.2
N1411 X2.4229 Y2.9142 Z-0.1801
N1412 X2.513 Y2.9662 Z-0.1589
N1413 X2.6029 Y3.0181 Z-0.1362
N1414 X2.6797 Y3.0625 Z-0.1158
N1415 X2.7436 Y3.0994 Z-0.098
N1416 X2.8073 Y3.1361 Z-0.0794
N1417 X2.8836 Y3.1802 Z-0.0562
N1418 X2.9697 Y3.2299 Z-0.0288
N1419 X2.9984 Y3.2465 Z-0.0209
N1420 X3.0274 Y3.2632 Z-0.0143
N1421 X3.0566 Y3.2801 Z-0.009
N1422 X3.086 Y3.297 Z-0.0049
N1423 X3.1154 Y3.314 Z-0.0021
N1424 X3.1449 Y3.331 Z-0.0005
N1425 X3.1716 Y3.3465 Z0
N1426 X3.1748 Y3.3483 Z0.0003
N1427 X3.1778 Y3.3501 Z0.0012
N1428 X3.1808 Y3.3518 Z0.0025
N1429 X3.1838 Y3.3535 Z0.004
N1430 X3.187 Y3.3554 Z0.0048
N1431 X3.1903 Y3.3573 Z0.0051
N1432 G3 X3.2178 Y3.4597 I-0.0375 J0.065
N1433 G1 X3.1678 Y3.5462
N1434 G3 X3.0654 Y3.5737 I-0.065 J-0.0375
N1435 G1 X2.6905 Y3.3573
N1436 X2.6872 Y3.3554 Z0.0048
N1437 X2.684 Y3.3535 Z0.004
N1438 X2.681 Y3.3518 Z0.0025
N1439 X2.678 Y3.3501 Z0.0012
N1440 X2.6749 Y3.3483 Z0.0003
N1441 X2.6718 Y3.3465 Z0
N1442 X2.6451 Y3.331 Z-0.0005
N1443 X2.6156 Y3.314 Z-0.0021
N1444 X2.5861 Y3.297 Z-0.0049
N1445 X2.5568 Y3.2801 Z-0.009
N1446 X2.5276 Y3.2632 Z-0.0143
N1447 X2.4986 Y3.2465 Z-0.0209
N1448 X2.4699 Y3.2299 Z-0.0288
N1449 X2.3837 Y3.1802 Z-0.0562
N1450 X2.3075 Y3.1361 Z-0.0794
N1451 X2.2438 Y3.0994 Z-0.098
N1452 X2.1799 Y3.0625 Z-0.1158
N1453 X2.1031 Y3.0181 Z-0.1362
N1454 X2.0132 Y2.9662 Z-0.1589
N1455 X1.9231 Y2.9142 Z-0.1801
N1456 X1.8456 Y2.8695 Z-0.1972
N1457 X1.755 Y2.8172 Z-0.2161
N1458 X1.6643 Y2.7648 Z-0.2336
N1459 X1.5864 Y2.7198 Z-0.2476
N1460 X1.4953 Y2.6672 Z-0.2628
N1461 X1.391 Y2.607 Z-0.2786
N1462 X1.3127 Y2.5618 Z-0.2895
N1463 X1.2343 Y2.5165 Z-0.2994
N1464 X1.1428 Y2.4637 Z-0.31
N1465 X1.0511 Y2.4108 Z-0.3193
N1466 X0.9594 Y2.3578 Z-0.3274
N1467 X0.8675 Y2.3048 Z-0.3344
N1468 X0.786 Y2.2577 Z-0.3396
N1469 G0 Z0.2
N1470 X0.4274 Y2.3392
N1471 Z-0.114
N1472 G1 Z-0.33 F24
N1473 X0.4464 Y2.3502 Z-0.3285 F60
N1474 X0.5381 Y2.4032 Z-0.3205
N1475 X0.6167 Y2.4485 Z-0.3127
N1476 X0.7083 Y2.5014 Z-0.3026
N1477 X0.7998 Y2.5542 Z-0.2912
N1478 X0.8781 Y2.5995 Z-0.2805
N1479 X0.9563 Y2.6446 Z-0.2689
N1480 X1.0475 Y2.6972 Z-0.2543
N1481 X1.1384 Y2.7498 Z-0.2384
N1482 X1.2163 Y2.7947 Z-0.2237
N1483 X1.294 Y2.8396 Z-0.2082
N1484 X1.3845 Y2.8918 Z-0.1888
N1485 X1.4747 Y2.9439 Z-0.1681
N1486 X1.5519 Y2.9884 Z-0.1493
N1487 X1.616 Y3.0255 Z-0.1329
N1488 X1.68 Y3.0624 Z-0.1158
N1489 X1.7439 Y3.0993 Z-0.098
N1490 X1.8077 Y3.1361 Z-0.0794
N1491 X1.8839 Y3.1802 Z-0.0562
N1492 X1.9701 Y3.2299 Z-0.0288
N1493 X1.9988 Y3.2465 Z-0.0209
N1494 X2.0278 Y3.2632 Z-0.0143
N1495 X2.057 Y3.2801 Z-0.009
N1496 X2.0863 Y3.297 Z-0.0049
N1497 X2.1158 Y3.314 Z-0.0021
N1498 X2.1452 Y3.331 Z-0.0005
N1499 X2.172 Y3.3465 Z0
N1500 X2.1751 Y3.3483 Z0.0003
N1501 X2.1782 Y3.3501 Z0.0012
N1502 X2.1811 Y3.3518 Z0.0025
N1503 X2.1842 Y3.3535 Z0.004
N1504 X2.1874 Y3.3554 Z0.0048
N1505 X2.1907 Y3.3573 Z0.0051
N1506 G3 X2.2181 Y3.4597 I-0.0375 J0.065
N1507 G1 X2.1682 Y3.5462
N1508 G3 X2.0657 Y3.5737 I-0.065 J-0.0375
N1509 G1 X1.6909 Y3.3573
N1510 X1.6876 Y3.3554 Z0.0048
N1511 X1.6844 Y3.3535 Z0.004
N1512 X1.6813 Y3.3518 Z0.0025
N1513 X1.6784 Y3.3501 Z0.0012
N1514 X1.6753 Y3.3483 Z0.0003
N1515 X1.6721 Y3.3465 Z0
N1516 X1.6454 Y3.331 Z-0.0005
N1517 X1.6159 Y3.314 Z-0.0021
N1518 X1.5865 Y3.297 Z-0.0049
N1519 X1.5572 Y3.2801 Z-0.009
N1520 X1.528 Y3.2632 Z-0.0143
N1521 X1.499 Y3.2465 Z-0.0209
N1522 X1.4702 Y3.2299 Z-0.0288
N1523 X1.3841 Y3.1802 Z-0.0562
N1524 X1.3078 Y3.1361 Z-0.0794
N1525 X1.2441 Y3.0993 Z-0.098
N1526 X1.1802 Y3.0624 Z-0.1158
N1527 X1.1162 Y3.0255 Z-0.1329
N1528 X1.052 Y2.9884 Z-0.1493
N1529 X0.9877 Y2.9513 Z-0.165
N1530 X0.9104 Y2.9067 Z-0.183
N1531 X0.82 Y2.8545 Z-0.2028
N1532 X0.7294 Y2.8022 Z-0.2212
N1533 X0.6516 Y2.7572 Z-0.236
N1534 X0.5736 Y2.7122 Z-0.2498
N1535 X0.4826 Y2.6596 Z-0.2649
N1536 X0.3913 Y2.607 Z-0.2786
N1537 X0.313 Y2.5618 Z-0.2895
N1538 X0.2346 Y2.5165 Z-0.2994
N1539 X0.143 Y2.4636 Z-0.31
N1540 X0.0514 Y2.4107 Z-0.3193
N1541 X0 Y2.381 Z-0.324
N1542 X-0.0029 Y2.3794
N1543 X-0.0058 Y2.3777 Z-0.3236
N1544 X-0.0086 Y2.3761 Z-0.3228
N1545 X-0.0112 Y2.3746 Z-0.3215
N1546 X-0.0143 Y2.3728 Z-0.3201
N1547 X-0.0175 Y2.3709 Z-0.3193
N1548 X-0.0208 Y2.3691 Z-0.319
N1549 X-0.0237 Y2.3674
N1550 X-0.0267 Y2.3659 Z-0.3189
N1551 X-0.0298 Y2.3646 Z-0.3188
N1552 X-0.033 Y2.3634 Z-0.3187
N1553 X-0.0361 Y2.3623 Z-0.3185
N1554 X-0.0394 Y2.3613 Z-0.3183
N1555 X-0.0426 Y2.3606 Z-0.3181
N1556 X-0.0459 Y2.3599 Z-0.3178
N1557 X-0.0492 Y2.3594 Z-0.3175
N1558 X-0.0526 Y2.359 Z-0.3172
N1559 X-0.0559 Y2.3588 Z-0.3168
N1560 X-0.0592 Y2.3587 Z-0.3164
N1561 X-0.0626 Y2.3588 Z-0.316
N1562 X-0.0659 Y2.3591 Z-0.3155
N1563 X-0.0692 Y2.3594 Z-0.315
N1564 X-0.0725 Y2.36 Z-0.3145
N1565 X-0.0758 Y2.3606 Z-0.314
N1566 X-0.079 Y2.3614 Z-0.3134
N1567 X-0.0821 Y2.3624 Z-0.3128
N1568 X-0.0853 Y2.3635 Z-0.3122
N1569 X-0.0883 Y2.3647 Z-0.3116
N1570 X-0.0913 Y2.3661 Z-0.3109
N1571 X-0.0943 Y2.3676 Z-0.3102
N1572 X-0.0971 Y2.3692 Z-0.3095
N1573 X-0.0999 Y2.371 Z-0.3088
N1574 X-0.1026 Y2.3728 Z-0.3081
N1575 X-0.1052 Y2.3748 Z-0.3073
N1576 X-0.1077 Y2.377 Z-0.3065
N1577 X-0.1101 Y2.3792 Z-0.3058
N1578 X-0.1124 Y2.3815 Z-0.305
N1579 X-0.1146 Y2.384 Z-0.3042
N1580 X-0.1167 Y2.3865 Z-0.3034
N1581 X-0.1186 Y2.3891 Z-0.3026
N1582 X-0.1204 Y2.3918 Z-0.3018
N1583 X-0.1221 Y2.3946 Z-0.301
N1584 X-0.1743 Y2.4849 Z-0.2752
N1585 X-0.1758 Y2.4878 Z-0.2744
N1586 X-0.1773 Y2.4907 Z-0.2736
N1587 X-0.1786 Y2.4937 Z-0.2728
N1588 X-0.1797 Y2.4968 Z-0.272
N1589 X-0.1807 Y2.4999 Z-0.2712
N1590 X-0.1816 Y2.5031 Z-0.2704
N1591 X-0.1823 Y2.5062 Z-0.2697
N1592 X-0.1829 Y2.5095 Z-0.2689
N1593 X-0.1834 Y2.5127 Z-0.2682
N1594 X-0.1836 Y2.516 Z-0.2674
N1595 X-0.1838 Y2.5193 Z-0.2667
N1596 Y2.5226 Z-0.266
N1597 X-0.1836 Y2.5259 Z-0.2653
N1598 X-0.1833 Y2.5291 Z-0.2647
N1599 X-0.1828 Y2.5324 Z-0.264
N1600 X-0.1822 Y2.5357 Z-0.2634
N1601 X-0.1814 Y2.5389 Z-0.2628
N1602 X-0.1805 Y2.5421 Z-0.2622
N1603 X-0.1795 Y2.5452 Z-0.2617
N1604 X-0.1783 Y2.5483 Z-0.2612
N1605 X-0.177 Y2.5514 Z-0.2607
N1606 X-0.1755 Y2.5544 Z-0.2602
N1607 X-0.1739 Y2.5573 Z-0.2598
N1608 X-0.1722 Y2.5602 Z-0.2594
N1609 X-0.1703 Y2.563 Z-0.259
N1610 X-0.1683 Y2.5657 Z-0.2587
N1611 X-0.1662 Y2.5683 Z-0.2584
N1612 X-0.164 Y2.5708 Z-0.2581
N1613 X-0.1617 Y2.5732 Z-0.2579
N1614 X-0.1593 Y2.5756 Z-0.2577
N1615 X-0.1567 Y2.5778 Z-0.2575
N1616 X-0.1541 Y2.5799 Z-0.2574
N1617 X-0.1514 Y2.5819 Z-0.2573
N1618 X-0.1486 Y2.5837
N1619 X-0.1457 Y2.5855 Z-0.2572
N1620 X-0.0221 Y2.6569
N1621 X-0.0188 Y2.6588 Z-0.2575
N1622 X-0.0156 Y2.6606 Z-0.2584
N1623 X-0.0125 Y2.6624 Z-0.2598
N1624 X-0.0096 Y2.6641 Z-0.2612
N1625 X-0.0064 Y2.6659 Z-0.262
N1626 X-0.0032 Y2.6678 Z-0.2623
N1627 X0 Y2.6696 Z-0.2621
N1628 X0.0087 Y2.6747 Z-0.2607
N1629 X0.0868 Y2.7197 Z-0.2476
N1630 X0.1647 Y2.7647 Z-0.2336
N1631 X0.2555 Y2.8171 Z-0.2161
N1632 X0.346 Y2.8694 Z-0.1972
N1633 X0.4235 Y2.9141 Z-0.1801
N1634 X0.4879 Y2.9513 Z-0.1651
N1635 X0.5522 Y2.9884 Z-0.1493
N1636 X0.6164 Y3.0255 Z-0.1329
N1637 X0.6804 Y3.0624 Z-0.1158
N1638 X0.7443 Y3.0993 Z-0.098
N1639 X0.808 Y3.1361 Z-0.0794
N1640 X0.8843 Y3.1802 Z-0.0562
N1641 X0.9704 Y3.2299 Z-0.0288
N1642 X0.9992 Y3.2465 Z-0.0209
N1643 X1.0282 Y3.2632 Z-0.0143
N1644 X1.0574 Y3.2801 Z-0.009
N1645 X1.0867 Y3.297 Z-0.0049
N1646 X1.1161 Y3.314 Z-0.0021
N1647 X1.1456 Y3.331 Z-0.0005
N1648 X1.1723 Y3.3465 Z0
N1649 X1.1755 Y3.3483 Z0.0003
N1650 X1.1786 Y3.3501 Z0.0012
N1651 X1.1815 Y3.3518 Z0.0025
N1652 X1.1846 Y3.3535 Z0.004
N1653 X1.1878 Y3.3554 Z0.0048
N1654 X1.191 Y3.3573 Z0.0051
N1655 G3 X1.2185 Y3.4597 I-0.0375 J0.065
N1656 G1 X1.1685 Y3.5462
N1657 G3 X1.0661 Y3.5737 I-0.065 J-0.0375
N1658 G1 X0.6912 Y3.3573
N1659 X0.688 Y3.3554 Z0.0048
N1660 X0.6847 Y3.3535 Z0.004
N1661 X0.6817 Y3.3518 Z0.0025
N1662 X0.6788 Y3.3501 Z0.0012
N1663 X0.6757 Y3.3483 Z0.0003
N1664 X0.6725 Y3.3465 Z0
N1665 X0.6458 Y3.331 Z-0.0005
N1666 X0.6163 Y3.314 Z-0.0021
N1667 X0.5869 Y3.297 Z-0.0049
N1668 X0.5575 Y3.2801 Z-0.009
N1669 X0.5284 Y3.2632 Z-0.0143
N1670 X0.4994 Y3.2465 Z-0.0209
N1671 X0.4706 Y3.2299 Z-0.0288
N1672 X0.3845 Y3.1802 Z-0.0562
N1673 X0.3082 Y3.1361 Z-0.0794
N1674 X0.2445 Y3.0993 Z-0.098
N1675 X0.1806 Y3.0624 Z-0.1158
N1676 X0.1165 Y3.0255 Z-0.1329
N1677 X0.0524 Y2.9884 Z-0.1493
N1678 X0 Y2.9582 Z-0.1622
N1679 X-0.0029 Y2.9565 Z-0.1627
N1680 X-0.0057 Y2.9549
N1681 X-0.0086 Y2.9532 Z-0.1623
N1682 X-0.0114 Y2.9516 Z-0.1615
N1683 X-0.014 Y2.9501 Z-0.1602
N1684 X-0.0171 Y2.9483 Z-0.1588
N1685 X-0.0203 Y2.9465 Z-0.1579
N1686 X-0.0236 Y2.9446 Z-0.1577
N1687 X-0.0265 Y2.943 Z-0.1576
N1688 X-0.0295 Y2.9414 Z-0.1575
N1689 X-0.0326 Y2.9401 Z-0.1573
N1690 X-0.0357 Y2.9388 Z-0.1571
N1691 X-0.0388 Y2.9377 Z-0.1567
N1692 X-0.042 Y2.9366 Z-0.1563
N1693 X-0.0452 Y2.9358 Z-0.1558
N1694 X-0.0485 Y2.935 Z-0.1553
N1695 X-0.0517 Y2.9344 Z-0.1547
N1696 X-0.055 Y2.9339 Z-0.154
N1697 X-0.0582 Y2.9336 Z-0.1532
N1698 X-0.0615 Y2.9333 Z-0.1524
N1699 X-0.0647 Z-0.1515
N1700 X-0.068 Z-0.1506
N1701 X-0.0712 Y2.9335 Z-0.1496
N1702 X-0.0744 Y2.9339 Z-0.1485
N1703 X-0.0775 Y2.9343 Z-0.1474
N1704 X-0.0806 Y2.9349 Z-0.1462
N1705 X-0.0836 Y2.9357 Z-0.145
N1706 X-0.0866 Y2.9365 Z-0.1437
N1707 X-0.0896 Y2.9375 Z-0.1424
N1708 X-0.0924 Y2.9387 Z-0.1411
N1709 X-0.0952 Y2.9399 Z-0.1397
N1710 X-0.0979 Y2.9413 Z-0.1382
N1711 X-0.1006 Y2.9428 Z-0.1367
N1712 X-0.1031 Y2.9444 Z-0.1352
N1713 X-0.1055 Y2.9461 Z-0.1337
N1714 X-0.1079 Y2.948 Z-0.1321
N1715 X-0.1101 Y2.9499 Z-0.1305
N1716 X-0.1123 Y2.952 Z-0.1289
N1717 X-0.1143 Y2.9541 Z-0.1273
N1718 X-0.1162 Y2.9563 Z-0.1257
N1719 X-0.118 Y2.9587 Z-0.124
N1720 X-0.1196 Y2.9611 Z-0.1224
N1721 X-0.1211 Y2.9636 Z-0.1207
N1722 X-0.1808 Y3.067 Z-0.0531
N1723 X-0.1822 Y3.0696 Z-0.0514
N1724 X-0.1835 Y3.0722 Z-0.0498
N1725 X-0.1846 Y3.0749 Z-0.0481
N1726 X-0.1856 Y3.0777 Z-0.0465
N1727 X-0.1865 Y3.0805 Z-0.0448
N1728 X-0.1872 Y3.0834 Z-0.0432
N1729 X-0.1877 Y3.0863 Z-0.0416
N1730 X-0.1882 Y3.0892 Z-0.0401
N1731 X-0.1884 Y3.0922 Z-0.0385
N1732 X-0.1886 Y3.0952 Z-0.037
N1733 Y3.0982 Z-0.0356
N1734 X-0.1884 Y3.1013 Z-0.0341
N1735 X-0.1881 Y3.1043 Z-0.0327
N1736 X-0.1876 Y3.1074 Z-0.0313
N1737 X-0.187 Y3.1104 Z-0.03
N1738 X-0.1863 Y3.1134 Z-0.0288
N1739 X-0.1854 Y3.1164 Z-0.0275
N1740 X-0.1844 Y3.1194 Z-0.0264
N1741 X-0.1832 Y3.1224 Z-0.0252
N1742 X-0.1819 Y3.1253 Z-0.0242
N1743 X-0.1805 Y3.1282 Z-0.0232
N1744 X-0.1789 Y3.131 Z-0.0222
N1745 X-0.1772 Y3.1338 Z-0.0213
N1746 X-0.1754 Y3.1365 Z-0.0205
N1747 X-0.1735 Y3.1391 Z-0.0198
N1748 X-0.1714 Y3.1417 Z-0.0191
N1749 X-0.1693 Y3.1442 Z-0.0185
N1750 X-0.167 Y3.1467 Z-0.0179
N1751 X-0.1646 Y3.149 Z-0.0174
N1752 X-0.1622 Y3.1512 Z-0.017
N1753 X-0.1596 Y3.1534 Z-0.0167
N1754 X-0.1569 Y3.1555 Z-0.0164
N1755 X-0.1542 Y3.1574 Z-0.0163
N1756 X-0.1514 Y3.1593 Z-0.0161
N1757 X-0.1485 Y3.161
N1758 X-0.0232 Y3.2333
N1759 X-0.02 Y3.2352 Z-0.0164
N1760 X-0.0168 Y3.2371 Z-0.0173
N1761 X-0.0137 Y3.2388 Z-0.0187
N1762 X-0.0111 Y3.2403 Z-0.0199
N1763 X-0.0084 Y3.2419 Z-0.0207
N1764 X-0.0056 Y3.2435 Z-0.0212
N1765 X-0.0028 Y3.2451
N1766 X0 Y3.2468 Z-0.0207
N1767 X0.0285 Y3.2632 Z-0.0143
N1768 X0.0577 Y3.2801 Z-0.009
N1769 X0.0871 Y3.297 Z-0.0049
N1770 X0.1165 Y3.314 Z-0.0021
N1771 X0.146 Y3.331 Z-0.0005
N1772 X0.1727 Y3.3465 Z0
N1773 X0.1775 Y3.3492 Z0.0004 F24
N1774 X0.1822 Y3.352 Z0.0014
N1775 X0.1868 Y3.3546 Z0.003
N1776 X0.1912 Y3.3572 Z0.0052
N1777 X0.1954 Y3.3596 Z0.0079
N1778 X0.1993 Y3.3618 Z0.0112
N1779 X0.2029 Y3.3639 Z0.0149
N1780 X0.2061 Y3.3657 Z0.0191
N1781 X0.2088 Y3.3673 Z0.0236
N1782 X0.2111 Y3.3686 Z0.0285
N1783 X0.2129 Y3.3697 Z0.0336
N1784 X0.2143 Y3.3705 Z0.039
N1785 X0.2151 Y3.3709 Z0.0445
N1786 X0.2153 Y3.3711 Z0.05
N1787 G0 Z0.6
(Parallel1 (2))
N1789 X7.9286 Y0.8978
N1790 Z0.6
N1791 Z-0.0009
N1792 G1 Z-0.0213 F24
N1793 X7.9283 Y0.8977 Z-0.0267
N1794 X7.9276 Y0.8972 Z-0.032
N1795 X7.9263 Y0.8965 Z-0.0372
N1796 X7.9246 Y0.8955 Z-0.0422
N1797 X7.9224 Y0.8943 Z-0.047
N1798 X7.9198 Y0.8928 Z-0.0515
N1799 X7.9168 Y0.891 Z-0.0556
N1800 X7.9134 Y0.8891 Z-0.0593
N1801 X7.9097 Y0.8869 Z-0.0626
N1802 X7.9057 Y0.8846 Z-0.0654
N1803 X7.9015 Y0.8822 Z-0.0677
N1804 X7.8971 Y0.8796 Z-0.0694
N1805 X7.8925 Y0.877 Z-0.0706
N1806 X7.8879 Y0.8743 Z-0.0712
N1807 X7.8832 Y0.8716
N1808 X7.8786 Y0.8689 Z-0.0707
N1809 X7.874 Y0.8663 Z-0.0696
N1810 X7.7991 Y0.8231 Z-0.0463 F90
N1811 X7.7743 Y0.8088 Z-0.0383
N1812 X7.7742 Y0.8087
N1813 X7.7722 Y0.8075 Z-0.0375
N1814 X7.6909 Y0.7606 Z-0.001
N1815 X7.6889 Y0.7595 Z-0.0002
N1816 X7.6869 Y0.7586 Z0.0006
N1817 X7.6847 Y0.7577 Z0.0012
N1818 X7.6825 Y0.757 Z0.0018
N1819 X7.6802 Y0.7563 Z0.0023
N1820 X7.6779 Y0.7558 Z0.0027
N1821 X7.6755 Y0.7554 Z0.003
N1822 X7.6731 Y0.7552 Z0.0032
N1823 X7.6707 Y0.755 Z0.0033
N1824 X7.6683
N1825 X7.6659 Y0.7551
N1826 X7.6635 Y0.7553 Z0.0031
N1827 X7.6611 Y0.7557 Z0.0028
N1828 X7.6588 Y0.7562 Z0.0024
N1829 X7.6565 Y0.7568 Z0.002
N1830 X7.6543 Y0.7575 Z0.0014
N1831 X7.6521 Y0.7583 Z0.0008
N1832 X7.65 Y0.7592 Z0.0001
N1833 X7.648 Y0.7603 Z-0.0008
N1834 X7.646 Y0.7614 Z-0.0017
N1835 X7.6442 Y0.7627 Z-0.0026
N1836 X7.6425 Y0.764 Z-0.0037
N1837 X7.6409 Y0.7654 Z-0.0048
N1838 X7.6394 Y0.7669 Z-0.0059
N1839 X7.638 Y0.7685 Z-0.0071
N1840 X7.6368 Y0.7701 Z-0.0084
N1841 X7.6357 Y0.7718 Z-0.0097
N1842 X7.6348 Y0.7736 Z-0.0111
N1843 X7.634 Y0.7754 Z-0.0125
N1844 X7.6333 Y0.7772 Z-0.0139
N1845 X7.6328 Y0.7791 Z-0.0154
N1846 X7.6325 Y0.781 Z-0.0168
N1847 X7.6323 Y0.7829 Z-0.0183
N1848 Y0.7848 Z-0.0198
N1849 X7.6324 Y0.7867 Z-0.0213
N1850 X7.6327 Y0.7886 Z-0.0228
N1851 X7.6331 Y0.7904 Z-0.0242
N1852 X7.6337 Y0.7923 Z-0.0256
N1853 X7.6345 Y0.7941 Z-0.0271
N1854 X7.6354 Y0.7959 Z-0.0284
N1855 X7.6365 Y0.7976 Z-0.0298
N1856 X7.6376 Y0.7993 Z-0.0311
N1857 X7.639 Y0.8008 Z-0.0323
N1858 X7.6404 Y0.8024 Z-0.0335
N1859 X7.642 Y0.8038 Z-0.0346
N1860 X7.6437 Y0.8052 Z-0.0357
N1861 X7.6455 Y0.8064 Z-0.0366
N1862 X7.6474 Y0.8076 Z-0.0376
N1863 X7.6494 Y0.8088 Z-0.0383
N1864 X7.6742 Y0.8231 Z-0.0463
N1865 X7.7364 Y0.859 Z-0.0657
N1866 X7.7988 Y0.895 Z-0.0844
N1867 X7.874 Y0.9385 Z-0.106
N1868 X7.877 Y0.9402 Z-0.1066
N1869 X7.88 Y0.9419 Z-0.1067
N1870 X7.883 Y0.9437 Z-0.1063
N1871 X7.886 Y0.9454 Z-0.1055
N1872 X7.8888 Y0.947 Z-0.1042
N1873 X7.8918 Y0.9487 Z-0.1028
N1874 X7.895 Y0.9506 Z-0.1019
N1875 X7.8983 Y0.9525 Z-0.1016
N1876 X7.9291 Y0.9703
N1877 X7.9311 Y0.9715 Z-0.1017
N1878 X7.933 Y0.9728 Z-0.1018
N1879 X7.9348 Y0.9743 Z-0.1019
N1880 X7.9365 Y0.9758 Z-0.1022
N1881 X7.9382 Y0.9774 Z-0.1025
N1882 X7.9397 Y0.9791 Z-0.1029
N1883 X7.9411 Y0.9809 Z-0.1033
N1884 X7.9424 Y0.9828 Z-0.1039
N1885 X7.9436 Y0.9847 Z-0.1044
N1886 X7.9446 Y0.9867 Z-0.1051
N1887 X7.9455 Y0.9887 Z-0.1058
N1888 X7.9463 Y0.9907 Z-0.1065
N1889 X7.9469 Y0.9928 Z-0.1073
N1890 X7.9474 Y0.9949 Z-0.1082
N1891 X7.9477 Y0.9971 Z-0.109
N1892 X7.9479 Y0.9992 Z-0.11
N1893 Y1.0013 Z-0.1109
N1894 X7.9478 Y1.0034 Z-0.1119
N1895 X7.9476 Y1.0054 Z-0.1129
N1896 X7.9472 Y1.0075 Z-0.114
N1897 X7.9467 Y1.0095 Z-0.1151
N1898 X7.946 Y1.0114 Z-0.1161
N1899 X7.9452 Y1.0133 Z-0.1172
N1900 X7.9442 Y1.0151 Z-0.1183
N1901 X7.9431 Y1.0168 Z-0.1194
N1902 X7.9419 Y1.0185 Z-0.1205
N1903 X7.9406 Y1.02 Z-0.1216
N1904 X7.9391 Y1.0215 Z-0.1226
N1905 X7.9375 Y1.0228 Z-0.1237
N1906 X7.9359 Y1.0241 Z-0.1247
N1907 X7.9341 Y1.0252 Z-0.1257
N1908 X7.9323 Y1.0262 Z-0.1267
N1909 X7.9303 Y1.0271 Z-0.1276
N1910 X7.9283 Y1.0279 Z-0.1285
N1911 X7.9263 Y1.0285 Z-0.1293
N1912 X7.9242 Y1.029 Z-0.1301
N1913 X7.922 Y1.0294 Z-0.1309
N1914 X7.9198 Y1.0296 Z-0.1316
N1915 X7.9176 Y1.0297 Z-0.1322
N1916 X7.9153 Y1.0296 Z-0.1328
N1917 X7.9131 Y1.0295 Z-0.1333
N1918 X7.9108 Y1.0291 Z-0.1337
N1919 X7.9086 Y1.0287 Z-0.1341
N1920 X7.9064 Y1.0281 Z-0.1344
N1921 X7.9042 Y1.0274 Z-0.1347
N1922 X7.902 Y1.0265 Z-0.1349
N1923 X7.8999 Y1.0255 Z-0.135
N1924 X7.8979 Y1.0244
N1925 X7.8946 Y1.0225 Z-0.1353
N1926 X7.8914 Y1.0207 Z-0.1362
N1927 X7.8884 Y1.0189 Z-0.1376
N1928 X7.8856 Y1.0173 Z-0.1388
N1929 X7.8828 Y1.0157 Z-0.1397
N1930 X7.8799 Y1.014 Z-0.1401
N1931 X7.8769 Y1.0123 Z-0.14
N1932 X7.874 Y1.0106 Z-0.1395
N1933 X7.7984 Y0.967 Z-0.1195
N1934 X7.723 Y0.9234 Z-0.0986
N1935 X7.6351 Y0.8727 Z-0.073
N1936 X7.5487 Y0.8228 Z-0.0461
N1937 X7.5245 Y0.8088 Z-0.0384
N1938 X7.5216 Y0.8071 Z-0.0372 F24
N1939 X7.5188 Y0.8055 Z-0.0355
N1940 X7.5163 Y0.8041 Z-0.0333
N1941 X7.514 Y0.8028 Z-0.0308
N1942 X7.5122 Y0.8017 Z-0.0279
N1943 X7.5106 Y0.8008 Z-0.0248
N1944 X7.5095 Y0.8002 Z-0.0214
N1945 X7.5089 Y0.7998 Z-0.0179
N1946 X7.5086 Y0.7997 Z-0.0143
N1947 X7.5083 Z-0.0082 F90
N1948 X7.5074 Z-0.0021
N1949 X7.5059 Z0.0039
N1950 X7.5039 Z0.0096
N1951 X7.5013 Z0.0152
N1952 X7.4981 Z0.0204
N1953 X7.4945 Z0.0254
N1954 X7.4903 Z0.0299
N1955 X7.4858 Z0.034
N1956 X7.4809 Z0.0377
N1957 X7.4756 Z0.0408
N1958 X7.4701 Z0.0434
N1959 X7.4643 Z0.0455
N1960 X7.4584 Z0.047
N1961 X7.4523 Z0.0479
N1962 X7.4462 Z0.0482
N1963 X7.44 Z0.0479
N1964 X7.434 Z0.047
N1965 X7.428 Z0.0455
N1966 X7.4223 Z0.0434
N1967 X7.4167 Z0.0408
N1968 X7.4115 Z0.0377
N1969 X7.4065 Z0.034
N1970 X7.402 Z0.0299
N1971 X7.3979 Z0.0254
N1972 X7.3942 Z0.0204
N1973 X7.3911 Z0.0152
N1974 X7.3884 Z0.0096
N1975 X7.3864 Z0.0039
N1976 X7.3849 Z-0.0021
N1977 X7.384 Z-0.0082
N1978 X7.3837 Z-0.0143
N1979 X7.3839 Y0.7998 Z-0.0179 F24
N1980 X7.3846 Y0.8002 Z-0.0214
N1981 X7.3857 Y0.8009 Z-0.0248
N1982 X7.3872 Y0.8017 Z-0.0279
N1983 X7.3891 Y0.8028 Z-0.0308
N1984 X7.3913 Y0.8041 Z-0.0333
N1985 X7.3938 Y0.8056 Z-0.0355
N1986 X7.3966 Y0.8072 Z-0.0372
N1987 X7.3996 Y0.8089 Z-0.0384
N1988 X7.4228 Y0.8223 Z-0.0458 F90
N1989 X7.485 Y0.8582 Z-0.0653
N1990 X7.5473 Y0.8942 Z-0.084
N1991 X7.6226 Y0.9376 Z-0.1056
N1992 X7.7096 Y0.9878 Z-0.1293
N1993 X7.7981 Y1.039 Z-0.1519
N1994 X7.874 Y1.0828 Z-0.1702
N1995 X7.8769 Y1.0844 Z-0.1707
N1996 X7.8797 Y1.0861
N1997 X7.8826 Y1.0877 Z-0.1703
N1998 X7.8853 Y1.0893 Z-0.1695
N1999 X7.888 Y1.0909 Z-0.1682
N2000 X7.891 Y1.0926 Z-0.1668
N2001 X7.8942 Y1.0945 Z-0.1659
N2002 X7.8975 Y1.0964 Z-0.1657
N2003 X7.9284 Y1.1142
N2004 X7.9304 Y1.1154
N2005 X7.9323 Y1.1168 Z-0.1658
N2006 X7.9341 Y1.1182 Z-0.1659
N2007 X7.9358 Y1.1198 Z-0.1662
N2008 X7.9374 Y1.1215 Z-0.1665
N2009 X7.9389 Y1.1232 Z-0.1668
N2010 X7.9403 Y1.1251 Z-0.1672
N2011 X7.9415 Y1.127 Z-0.1677
N2012 X7.9426 Y1.129 Z-0.1682
N2013 X7.9436 Y1.1311 Z-0.1688
N2014 X7.9444 Y1.1332 Z-0.1694
N2015 X7.9451 Y1.1353 Z-0.1701
N2016 X7.9456 Y1.1374 Z-0.1708
N2017 X7.946 Y1.1396 Z-0.1716
N2018 X7.9462 Y1.1418 Z-0.1724
N2019 X7.9463 Y1.144 Z-0.1732
N2020 X7.9462 Y1.1462 Z-0.1741
N2021 X7.9459 Y1.1483 Z-0.175
N2022 X7.9455 Y1.1504 Z-0.1759
N2023 X7.945 Y1.1525 Z-0.1768
N2024 X7.9443 Y1.1545 Z-0.1777
N2025 X7.9434 Y1.1565 Z-0.1787
N2026 X7.9424 Y1.1584 Z-0.1797
N2027 X7.9413 Y1.1602 Z-0.1806
N2028 X7.94 Y1.1619 Z-0.1816
N2029 X7.9386 Y1.1635 Z-0.1825
N2030 X7.9371 Y1.165 Z-0.1834
N2031 X7.9355 Y1.1664 Z-0.1843
N2032 X7.9337 Y1.1677 Z-0.1852
N2033 X7.9319 Y1.1689 Z-0.1861
N2034 X7.93 Y1.1699 Z-0.1869
N2035 X7.928 Y1.1708 Z-0.1877
N2036 X7.9259 Y1.1716 Z-0.1885
N2037 X7.9238 Y1.1722 Z-0.1892
N2038 X7.9216 Y1.1727 Z-0.1899
N2039 X7.9194 Y1.173 Z-0.1905
N2040 X7.9171 Y1.1732 Z-0.1911
N2041 X7.9148 Y1.1733 Z-0.1916
N2042 X7.9125 Y1.1731 Z-0.1921
N2043 X7.9102 Y1.1729 Z-0.1925
N2044 X7.908 Y1.1725 Z-0.1929
N2045 X7.9057 Y1.1719 Z-0.1931
N2046 X7.9035 Y1.1712 Z-0.1934
N2047 X7.9013 Y1.1704 Z-0.1935
N2048 X7.8992 Y1.1694 Z-0.1936
N2049 X7.8971 Y1.1683 Z-0.1937
N2050 X7.8939 Y1.1664 Z-0.1939
N2051 X7.8907 Y1.1646 Z-0.1948
N2052 X7.8876 Y1.1628 Z-0.1962
N2053 X7.885 Y1.1613 Z-0.1974
N2054 X7.8823 Y1.1598 Z-0.1983
N2055 X7.8796 Y1.1582 Z-0.1987
N2056 X7.8768 Y1.1566
N2057 X7.874 Y1.155 Z-0.1983
N2058 X7.7849 Y1.1035 Z-0.1787
N2059 X7.6974 Y1.053 Z-0.1579
N2060 X7.6216 Y1.0092 Z-0.1389
N2061 X7.5588 Y0.973 Z-0.1224
N2062 X7.4834 Y0.9294 Z-0.1016
N2063 X7.4081 Y0.886 Z-0.0798
N2064 X7.3332 Y0.8427 Z-0.057
N2065 X7.2746 Y0.8089 Z-0.0384
N2066 X7.2725 Y0.8077 Z-0.0376
N2067 X7.1912 Y0.7607 Z-0.0011
N2068 X7.1892 Y0.7597 Z-0.0003
N2069 X7.1871 Y0.7587 Z0.0005
N2070 X7.185 Y0.7578 Z0.0012
N2071 X7.1827 Y0.7571 Z0.0017
N2072 X7.1805 Y0.7564 Z0.0022
N2073 X7.1781 Y0.7559 Z0.0026
N2074 X7.1758 Y0.7555 Z0.0029
N2075 X7.1734 Y0.7553 Z0.0031
N2076 X7.171 Y0.7551 Z0.0033
N2077 X7.1686
N2078 X7.1662 Y0.7552 Z0.0032
N2079 X7.1638 Y0.7555 Z0.003
N2080 X7.1614 Y0.7558 Z0.0027
N2081 X7.159 Y0.7563 Z0.0024
N2082 X7.1568 Y0.7569 Z0.0019
N2083 X7.1545 Y0.7576 Z0.0013
N2084 X7.1523 Y0.7584 Z0.0007
N2085 X7.1502 Y0.7594 Z0
N2086 X7.1482 Y0.7604 Z-0.0008
N2087 X7.1463 Y0.7615 Z-0.0017
N2088 X7.1445 Y0.7628 Z-0.0027
N2089 X7.1427 Y0.7641 Z-0.0037
N2090 X7.1411 Y0.7655 Z-0.0048
N2091 X7.1396 Y0.767 Z-0.006
N2092 X7.1383 Y0.7686 Z-0.0072
N2093 X7.137 Y0.7703 Z-0.0085
N2094 X7.136 Y0.772 Z-0.0098
N2095 X7.135 Y0.7737 Z-0.0112
N2096 X7.1342 Y0.7755 Z-0.0126
N2097 X7.1336 Y0.7773 Z-0.014
N2098 X7.1331 Y0.7792 Z-0.0155
N2099 X7.1327 Y0.7811 Z-0.0169
N2100 X7.1326 Y0.783 Z-0.0184
N2101 X7.1325 Y0.7849 Z-0.0199
N2102 X7.1327 Y0.7868 Z-0.0214
N2103 X7.133 Y0.7887 Z-0.0228
N2104 X7.1334 Y0.7906 Z-0.0243
N2105 X7.134 Y0.7924 Z-0.0257
N2106 X7.1348 Y0.7942 Z-0.0271
N2107 X7.1357 Y0.796 Z-0.0285
N2108 X7.1367 Y0.7977 Z-0.0298
N2109 X7.1379 Y0.7994 Z-0.0311
N2110 X7.1392 Y0.801 Z-0.0324
N2111 X7.1407 Y0.8025 Z-0.0336
N2112 X7.1422 Y0.8039 Z-0.0347
N2113 X7.1439 Y0.8053 Z-0.0357
N2114 X7.1457 Y0.8066 Z-0.0367
N2115 X7.1476 Y0.8077 Z-0.0376
N2116 X7.1497 Y0.8089 Z-0.0384
N2117 X7.1696 Y0.8204 Z-0.0448
N2118 X7.2318 Y0.8563 Z-0.0643
N2119 X7.3183 Y0.9063 Z-0.0901
N2120 X7.4064 Y0.9572 Z-0.1149
N2121 X7.482 Y1.0008 Z-0.1351
N2122 X7.5577 Y1.0445 Z-0.1543
N2123 X7.6337 Y1.0883 Z-0.1725
N2124 X7.6968 Y1.1248 Z-0.1869
N2125 X7.7847 Y1.1755 Z-0.2059
N2126 X7.874 Y1.2271 Z-0.2239
N2127 X7.8774 Y1.2291 Z-0.2242
N2128 X7.8808 Y1.231 Z-0.224
N2129 X7.8841 Y1.2329 Z-0.2231
N2130 X7.8873 Y1.2348 Z-0.2217
N2131 X7.8903 Y1.2365 Z-0.2203
N2132 X7.8935 Y1.2384 Z-0.2194
N2133 X7.8968 Y1.2403 Z-0.2191
N2134 X7.9277 Y1.2581
N2135 X7.9296 Y1.2593 Z-0.2192
N2136 X7.9315 Y1.2606
N2137 X7.9332 Y1.2621 Z-0.2194
N2138 X7.9349 Y1.2636 Z-0.2196
N2139 X7.9364 Y1.2652 Z-0.2198
N2140 X7.9379 Y1.267 Z-0.2201
N2141 X7.9392 Y1.2688 Z-0.2204
N2142 X7.9404 Y1.2707 Z-0.2208
N2143 X7.9415 Y1.2727 Z-0.2212
N2144 X7.9424 Y1.2747 Z-0.2217
N2145 X7.9432 Y1.2768 Z-0.2222
N2146 X7.9438 Y1.2789 Z-0.2228
N2147 X7.9443 Y1.281 Z-0.2234
N2148 X7.9446 Y1.2832 Z-0.224
N2149 X7.9448 Y1.2853 Z-0.2247
N2150 X7.9449 Y1.2875 Z-0.2253
N2151 X7.9447 Y1.2897 Z-0.226
N2152 X7.9445 Y1.2918 Z-0.2268
N2153 X7.944 Y1.2939 Z-0.2275
N2154 X7.9435 Y1.296 Z-0.2283
N2155 X7.9428 Y1.298 Z-0.2291
N2156 X7.9419 Y1.2999 Z-0.2298
N2157 X7.9409 Y1.3018 Z-0.2306
N2158 X7.9398 Y1.3036 Z-0.2314
N2159 X7.9385 Y1.3053 Z-0.2322
N2160 X7.9371 Y1.307 Z-0.233
N2161 X7.9356 Y1.3085 Z-0.2337
N2162 X7.934 Y1.3099 Z-0.2345
N2163 X7.9323 Y1.3112 Z-0.2352
N2164 X7.9305 Y1.3124 Z-0.2359
N2165 X7.9286 Y1.3135 Z-0.2366
N2166 X7.9266 Y1.3144 Z-0.2372
N2167 X7.9246 Y1.3152 Z-0.2379
N2168 X7.9225 Y1.3158 Z-0.2385
N2169 X7.9203 Y1.3163 Z-0.239
N2170 X7.9181 Y1.3167 Z-0.2395
N2171 X7.9159 Y1.3169 Z-0.24
N2172 X7.9137 Z-0.2404
N2173 X7.9115 Z-0.2408
N2174 X7.9092 Y1.3166 Z-0.2412
N2175 X7.907 Y1.3162 Z-0.2414
N2176 X7.9048 Y1.3157 Z-0.2417
N2177 X7.9026 Y1.315 Z-0.2419
N2178 X7.9005 Y1.3142 Z-0.242
N2179 X7.8984 Y1.3133 Z-0.2421
N2180 X7.8964 Y1.3122
N2181 X7.8932 Y1.3103 Z-0.2424
N2182 X7.89 Y1.3085 Z-0.2432
N2183 X7.8869 Y1.3067 Z-0.2447
N2184 X7.8838 Y1.305 Z-0.2461
N2185 X7.8806 Y1.3031 Z-0.2469
N2186 X7.8773 Y1.3012 Z-0.2472
N2187 X7.874 Y1.2993 Z-0.2469
N2188 X7.7844 Y1.2476 Z-0.2306
N2189 X7.708 Y1.2034 Z-0.2157
N2190 X7.6446 Y1.1668 Z-0.2027
N2191 X7.5684 Y1.1228 Z-0.1861
N2192 X7.4923 Y1.0789 Z-0.1686
N2193 X7.4164 Y1.0351 Z-0.1502
N2194 X7.3164 Y0.9773 Z-0.1244
N2195 X7.2422 Y0.9345 Z-0.1041
N2196 X7.1797 Y0.8984 Z-0.0861
N2197 X7.1046 Y0.8551 Z-0.0636
N2198 X7.0425 Y0.8192 Z-0.0441
N2199 X7.0247 Y0.8089 Z-0.0384
N2200 X7.0227 Y0.8078 Z-0.0376
N2201 X6.9413 Y0.7608 Z-0.0011
N2202 X6.9393 Y0.7597 Z-0.0003
N2203 X6.9372 Y0.7587 Z0.0005
N2204 X6.9351 Y0.7579 Z0.0011
N2205 X6.9328 Y0.7571 Z0.0017
N2206 X6.9306 Y0.7565 Z0.0022
N2207 X6.9282 Y0.756 Z0.0026
N2208 X6.9259 Y0.7556 Z0.0029
N2209 X6.9235 Y0.7553 Z0.0031
N2210 X6.9211 Y0.7552 Z0.0032
N2211 X6.9187
N2212 X6.9162 Y0.7553
N2213 X6.9139 Y0.7555 Z0.003
N2214 X6.9115 Y0.7559 Z0.0027
N2215 X6.9091 Y0.7563 Z0.0023
N2216 X6.9068 Y0.7569 Z0.0019
N2217 X6.9046 Y0.7576 Z0.0013
N2218 X6.9024 Y0.7585 Z0.0007
N2219 X6.9003 Y0.7594 Z0
N2220 X6.8983 Y0.7604 Z-0.0009
N2221 X6.8964 Y0.7616 Z-0.0017
N2222 X6.8946 Y0.7628 Z-0.0027
N2223 X6.8928 Y0.7642 Z-0.0038
N2224 X6.8912 Y0.7656 Z-0.0049
N2225 X6.8897 Y0.7671 Z-0.006
N2226 X6.8884 Y0.7687 Z-0.0072
N2227 X6.8871 Y0.7703 Z-0.0085
N2228 X6.8861 Y0.772 Z-0.0098
N2229 X6.8851 Y0.7738 Z-0.0112
N2230 X6.8843 Y0.7756 Z-0.0126
N2231 X6.8837 Y0.7774 Z-0.014
N2232 X6.8832 Y0.7793 Z-0.0155
N2233 X6.8828 Y0.7811 Z-0.017
N2234 X6.8827 Y0.783 Z-0.0184
N2235 X6.8826 Y0.7849 Z-0.0199
N2236 X6.8828 Y0.7869 Z-0.0214
N2237 X6.8831 Y0.7887 Z-0.0229
N2238 X6.8835 Y0.7906 Z-0.0243
N2239 X6.8841 Y0.7925 Z-0.0258
N2240 X6.8849 Y0.7943 Z-0.0272
N2241 X6.8858 Y0.796 Z-0.0285
N2242 X6.8868 Y0.7978 Z-0.0299
N2243 X6.888 Y0.7994 Z-0.0312
N2244 X6.8893 Y0.801 Z-0.0324
N2245 X6.8908 Y0.8025 Z-0.0336
N2246 X6.8923 Y0.804 Z-0.0347
N2247 X6.894 Y0.8053 Z-0.0358
N2248 X6.8958 Y0.8066 Z-0.0368
N2249 X6.8977 Y0.8078 Z-0.0377
N2250 X6.8998 Y0.809 Z-0.0385
N2251 X6.915 Y0.8178 Z-0.0433
N2252 X6.9899 Y0.861 Z-0.0668
N2253 X7.0522 Y0.897 Z-0.0854
N2254 X7.1134 Y0.9323 Z-0.103
N2255 X7.1761 Y0.9685 Z-0.1203
N2256 X7.2517 Y1.0121 Z-0.1402
N2257 X7.3146 Y1.0485 Z-0.156
N2258 X7.3906 Y1.0923 Z-0.1741
N2259 X7.4653 Y1.1355 Z-0.191
N2260 X7.5546 Y1.187 Z-0.21
N2261 X7.644 Y1.2386 Z-0.2277
N2262 X7.7205 Y1.2828 Z-0.2418
N2263 X7.7972 Y1.3271 Z-0.2551
N2264 X7.874 Y1.3714 Z-0.2675
N2265 X7.8772 Y1.3733 Z-0.2677
N2266 X7.8804 Y1.3751 Z-0.2674
N2267 X7.8836 Y1.377 Z-0.2665
N2268 X7.8865 Y1.3787 Z-0.2651
N2269 X7.8896 Y1.3804 Z-0.2637
N2270 X7.8928 Y1.3823 Z-0.2629
N2271 X7.8961 Y1.3842 Z-0.2626
N2272 X7.927 Y1.402
N2273 X7.9289 Y1.4032
N2274 X7.9307 Y1.4045 Z-0.2627
N2275 X7.9324 Y1.4059 Z-0.2628
N2276 X7.934 Y1.4074 Z-0.2629
N2277 X7.9355 Y1.409 Z-0.2631
N2278 X7.9369 Y1.4107 Z-0.2633
N2279 X7.9382 Y1.4125 Z-0.2636
N2280 X7.9394 Y1.4144 Z-0.2639
N2281 X7.9404 Y1.4164 Z-0.2643
N2282 X7.9413 Y1.4184 Z-0.2646
N2283 X7.942 Y1.4204 Z-0.265
N2284 X7.9426 Y1.4225 Z-0.2655
N2285 X7.9431 Y1.4246 Z-0.266
N2286 X7.9434 Y1.4268 Z-0.2664
N2287 X7.9436 Y1.4289 Z-0.267
N2288 Y1.4311 Z-0.2675
N2289 X7.9434 Y1.4332 Z-0.2681
N2290 X7.9431 Y1.4354 Z-0.2686
N2291 X7.9427 Y1.4375 Z-0.2692
N2292 X7.9421 Y1.4395 Z-0.2698
N2293 X7.9414 Y1.4415 Z-0.2705
N2294 X7.9405 Y1.4435 Z-0.2711
N2295 X7.9395 Y1.4454 Z-0.2717
N2296 X7.9384 Y1.4472 Z-0.2723
N2297 X7.9372 Y1.4489 Z-0.2729
N2298 X7.9358 Y1.4505 Z-0.2735
N2299 X7.9343 Y1.4521 Z-0.2741
N2300 X7.9327 Y1.4535 Z-0.2747
N2301 X7.931 Y1.4548 Z-0.2753
N2302 X7.9292 Y1.456 Z-0.2759
N2303 X7.9273 Y1.457 Z-0.2764
N2304 X7.9254 Y1.458 Z-0.2769
N2305 X7.9234 Y1.4588 Z-0.2774
N2306 X7.9213 Y1.4594 Z-0.2779
N2307 X7.9192 Y1.46 Z-0.2783
N2308 X7.917 Y1.4603 Z-0.2787
N2309 X7.9148 Y1.4606 Z-0.2791
N2310 X7.9127 Y1.4607 Z-0.2795
N2311 X7.9105 Y1.4606 Z-0.2798
N2312 X7.9083 Y1.4604 Z-0.28
N2313 X7.9061 Y1.46 Z-0.2803
N2314 X7.9039 Y1.4595 Z-0.2804
N2315 X7.9018 Y1.4589 Z-0.2806
N2316 X7.8997 Y1.4581 Z-0.2807
N2317 X7.8977 Y1.4572 Z-0.2808
N2318 X7.8957 Y1.4561
N2319 X7.8925 Y1.4543 Z-0.2811
N2320 X7.8893 Y1.4524 Z-0.2819
N2321 X7.8862 Y1.4506 Z-0.2833
N2322 X7.8833 Y1.449 Z-0.2847
N2323 X7.8803 Y1.4472 Z-0.2855
N2324 X7.8771 Y1.4454 Z-0.2859
N2325 X7.874 Y1.4436 Z-0.2857
N2326 X7.784 Y1.3916 Z-0.2728
N2327 X7.6824 Y1.333 Z-0.2568
N2328 X7.6057 Y1.2887 Z-0.2436
N2329 X7.5292 Y1.2445 Z-0.2296
N2330 X7.4656 Y1.2078 Z-0.2173
N2331 X7.3893 Y1.1637 Z-0.2016
N2332 X7.326 Y1.1272 Z-0.1878
N2333 X7.2499 Y1.0833 Z-0.1704
N2334 X7.174 Y1.0395 Z-0.1521
N2335 X7.0996 Y0.9965 Z-0.1332
N2336 X7.0112 Y0.9455 Z-0.1094
N2337 X6.9258 Y0.8962 Z-0.085
N2338 X6.8648 Y0.8609 Z-0.0667
N2339 X6.7899 Y0.8177 Z-0.0433
N2340 X6.7749 Y0.809 Z-0.0385
N2341 X6.7748
N2342 X6.7727 Y0.8078 Z-0.0377
N2343 X6.6914 Y0.7608 Z-0.0012
N2344 X6.6894 Y0.7598 Z-0.0003
N2345 X6.6874 Y0.7588 Z0.0004
N2346 X6.6852 Y0.7579 Z0.0011
N2347 X6.683 Y0.7572 Z0.0017
N2348 X6.6807 Y0.7566 Z0.0022
N2349 X6.6784 Y0.7561 Z0.0026
N2350 X6.676 Y0.7557 Z0.0029
N2351 X6.6736 Y0.7554 Z0.0031
N2352 X6.6712 Y0.7553 Z0.0032
N2353 X6.6688 Y0.7552
N2354 X6.6664 Y0.7553 Z0.0031
N2355 X6.664 Y0.7556 Z0.0029
N2356 X6.6616 Y0.7559 Z0.0027
N2357 X6.6593 Y0.7564 Z0.0023
N2358 X6.657 Y0.757 Z0.0018
N2359 X6.6548 Y0.7577 Z0.0013
N2360 X6.6526 Y0.7585 Z0.0006
N2361 X6.6505 Y0.7595 Z-0.0001
N2362 X6.6485 Y0.7605 Z-0.0009
N2363 X6.6465 Y0.7617 Z-0.0018
N2364 X6.6447 Y0.7629 Z-0.0028
N2365 X6.643 Y0.7642 Z-0.0038
N2366 X6.6414 Y0.7657 Z-0.0049
N2367 X6.6399 Y0.7672 Z-0.0061
N2368 X6.6385 Y0.7687 Z-0.0073
N2369 X6.6373 Y0.7704 Z-0.0086
N2370 X6.6362 Y0.7721 Z-0.0099
N2371 X6.6353 Y0.7738 Z-0.0113
N2372 X6.6345 Y0.7756 Z-0.0127
N2373 X6.6338 Y0.7775 Z-0.0141
N2374 X6.6333 Y0.7793 Z-0.0155
N2375 X6.633 Y0.7812 Z-0.017
N2376 X6.6328 Y0.7831 Z-0.0185
N2377 Y0.785 Z-0.02
N2378 X6.6329 Y0.7869 Z-0.0214
N2379 X6.6332 Y0.7888 Z-0.0229
N2380 X6.6337 Y0.7907 Z-0.0244
N2381 X6.6343 Y0.7925 Z-0.0258
N2382 X6.635 Y0.7943 Z-0.0272
N2383 X6.6359 Y0.7961 Z-0.0286
N2384 X6.637 Y0.7978 Z-0.0299
N2385 X6.6381 Y0.7995 Z-0.0312
N2386 X6.6395 Y0.8011 Z-0.0324
N2387 X6.6409 Y0.8026 Z-0.0336
N2388 X6.6425 Y0.8041 Z-0.0348
N2389 X6.6442 Y0.8054 Z-0.0358
N2390 X6.646 Y0.8067 Z-0.0368
N2391 X6.6479 Y0.8079 Z-0.0377
N2392 X6.6499 Y0.809 Z-0.0385
N2393 X6.676 Y0.8241 Z-0.0468
N2394 X6.7382 Y0.86 Z-0.0662
N2395 X6.7992 Y0.8952 Z-0.0845
N2396 X6.8604 Y0.9305 Z-0.1021
N2397 X6.9358 Y0.9741 Z-0.1229
N2398 X6.9986 Y1.0104 Z-0.1394
N2399 X7.0602 Y1.0459 Z-0.1549
N2400 X7.1362 Y1.0898 Z-0.1731
N2401 X7.198 Y1.1255 Z-0.1872
N2402 X7.2859 Y1.1762 Z-0.2061
N2403 X7.3752 Y1.2278 Z-0.2241
N2404 X7.4648 Y1.2795 Z-0.2408
N2405 X7.5414 Y1.3238 Z-0.2541
N2406 X7.6182 Y1.3681 Z-0.2665
N2407 X7.6951 Y1.4125 Z-0.2781
N2408 X7.7721 Y1.4569 Z-0.2888
N2409 X7.874 Y1.5158 Z-0.3017
N2410 X7.8771 Y1.5175 Z-0.3018
N2411 X7.8801 Y1.5193 Z-0.3015
N2412 X7.8831 Y1.521 Z-0.3006
N2413 X7.8859 Y1.5226 Z-0.2993
N2414 X7.8889 Y1.5244 Z-0.2979
N2415 X7.8921 Y1.5262 Z-0.297
N2416 X7.8954 Y1.5281 Z-0.2967
N2417 X7.9263 Y1.546
N2418 X7.9282 Y1.5471
N2419 X7.93 Y1.5484 Z-0.2968
N2420 X7.9316 Y1.5498 Z-0.2969
N2421 X7.9332 Y1.5513 Z-0.297
N2422 X7.9347 Y1.5529 Z-0.2971
N2423 X7.9361 Y1.5546 Z-0.2973
N2424 X7.9373 Y1.5564 Z-0.2975
N2425 X7.9385 Y1.5582 Z-0.2977
N2426 X7.9394 Y1.5601 Z-0.298
N2427 X7.9403 Y1.5621 Z-0.2983
N2428 X7.941 Y1.5642 Z-0.2986
N2429 X7.9416 Y1.5663 Z-0.2989
N2430 X7.9421 Y1.5684 Z-0.2993
N2431 X7.9424 Y1.5705 Z-0.2996
N2432 X7.9425 Y1.5726 Z-0.3
N2433 Y1.5748 Z-0.3004
N2434 X7.9423 Y1.5769 Z-0.3009
N2435 X7.942 Y1.579 Z-0.3013
N2436 X7.9416 Y1.5811 Z-0.3017
N2437 X7.941 Y1.5832 Z-0.3022
N2438 X7.9403 Y1.5852 Z-0.3027
N2439 X7.9394 Y1.5871 Z-0.3031
N2440 X7.9384 Y1.589 Z-0.3036
N2441 X7.9373 Y1.5908 Z-0.3041
N2442 X7.936 Y1.5926 Z-0.3045
N2443 X7.9347 Y1.5942 Z-0.305
N2444 X7.9332 Y1.5957 Z-0.3054
N2445 X7.9316 Y1.5972 Z-0.3059
N2446 X7.9299 Y1.5985 Z-0.3063
N2447 X7.9281 Y1.5997 Z-0.3067
N2448 X7.9263 Y1.6008 Z-0.3071
N2449 X7.9243 Y1.6017 Z-0.3075
N2450 X7.9223 Y1.6025 Z-0.3079
N2451 X7.9203 Y1.6032 Z-0.3083
N2452 X7.9182 Y1.6037 Z-0.3086
N2453 X7.9161 Y1.6041 Z-0.3089
N2454 X7.9139 Y1.6044 Z-0.3092
N2455 X7.9118 Y1.6045 Z-0.3094
N2456 X7.9096 Y1.6044 Z-0.3097
N2457 X7.9074 Y1.6042 Z-0.3099
N2458 X7.9053 Y1.6039 Z-0.31
N2459 X7.9031 Y1.6034 Z-0.3102
N2460 X7.901 Y1.6028 Z-0.3103
N2461 X7.899 Y1.602 Z-0.3104
N2462 X7.897 Y1.6011
N2463 X7.8951 Y1.6001
N2464 X7.8918 Y1.5982 Z-0.3107
N2465 X7.8886 Y1.5964 Z-0.3116
N2466 X7.8856 Y1.5946 Z-0.313
N2467 X7.8828 Y1.593 Z-0.3143
N2468 X7.8799 Y1.5913 Z-0.3151
N2469 X7.877 Y1.5896 Z-0.3155
N2470 X7.874 Y1.5879 Z-0.3154
N2471 X7.7837 Y1.5358 Z-0.3057
N2472 X7.7066 Y1.4913 Z-0.2965
N2473 X7.6295 Y1.4468 Z-0.2865
N2474 X7.5526 Y1.4023 Z-0.2755
N2475 X7.4627 Y1.3504 Z-0.2617
N2476 X7.3613 Y1.2919 Z-0.2446
N2477 X7.286 Y1.2484 Z-0.2309
N2478 X7.2095 Y1.2043 Z-0.216
N2479 X7.1474 Y1.1684 Z-0.2033
N2480 X7.0712 Y1.1244 Z-0.1868
N2481 X7.0094 Y1.0887 Z-0.1727
N2482 X6.9334 Y1.0449 Z-0.1544
N2483 X6.8577 Y1.0011 Z-0.1353
N2484 X6.7834 Y0.9583 Z-0.1155
N2485 X6.6953 Y0.9074 Z-0.0907
N2486 X6.6101 Y0.8582 Z-0.0653
N2487 X6.5492 Y0.823 Z-0.0463
N2488 X6.525 Y0.8091 Z-0.0385
N2489 X6.5249 Y0.809
N2490 X6.5229 Y0.8078 Z-0.0377
N2491 X6.4415 Y0.7609 Z-0.0012
N2492 X6.4395 Y0.7598 Z-0.0004
N2493 X6.4375 Y0.7588 Z0.0004
N2494 X6.4353 Y0.758 Z0.0011
N2495 X6.4331 Y0.7572 Z0.0016
N2496 X6.4308 Y0.7566 Z0.0021
N2497 X6.4285 Y0.7561 Z0.0025
N2498 X6.4261 Y0.7557 Z0.0028
N2499 X6.4237 Y0.7554 Z0.003
N2500 X6.4213 Y0.7553 Z0.0031
N2501 X6.4189 Z0.0032
N2502 X6.4165 Y0.7554 Z0.0031
N2503 X6.4141 Y0.7556 Z0.0029
N2504 X6.4117 Y0.756 Z0.0026
N2505 X6.4094 Y0.7565 Z0.0023
N2506 X6.4071 Y0.757 Z0.0018
N2507 X6.4049 Y0.7578 Z0.0012
N2508 X6.4027 Y0.7586 Z0.0006
N2509 X6.4006 Y0.7595 Z-0.0001
N2510 X6.3986 Y0.7606 Z-0.0009
N2511 X6.3966 Y0.7617 Z-0.0018
N2512 X6.3948 Y0.763 Z-0.0028
N2513 X6.3931 Y0.7643 Z-0.0038
N2514 X6.3915 Y0.7657 Z-0.0049
N2515 X6.39 Y0.7672 Z-0.0061
N2516 X6.3886 Y0.7688 Z-0.0073
N2517 X6.3874 Y0.7704 Z-0.0086
N2518 X6.3863 Y0.7721 Z-0.0099
N2519 X6.3854 Y0.7739 Z-0.0113
N2520 X6.3846 Y0.7757 Z-0.0127
N2521 X6.3839 Y0.7775 Z-0.0141
N2522 X6.3834 Y0.7794 Z-0.0156
N2523 X6.3831 Y0.7813 Z-0.017
N2524 X6.3829 Y0.7832 Z-0.0185
N2525 Y0.7851 Z-0.02
N2526 X6.383 Y0.787 Z-0.0215
N2527 X6.3833 Y0.7889 Z-0.0229
N2528 X6.3838 Y0.7907 Z-0.0244
N2529 X6.3844 Y0.7926 Z-0.0258
N2530 X6.3851 Y0.7944 Z-0.0272
N2531 X6.386 Y0.7962 Z-0.0286
N2532 X6.3871 Y0.7979 Z-0.0299
N2533 X6.3883 Y0.7995 Z-0.0312
N2534 X6.3896 Y0.8011 Z-0.0325
N2535 X6.391 Y0.8027 Z-0.0337
N2536 X6.3926 Y0.8041 Z-0.0348
N2537 X6.3943 Y0.8055 Z-0.0358
N2538 X6.3961 Y0.8067 Z-0.0368
N2539 X6.398 Y0.8079 Z-0.0377
N2540 X6.4 Y0.8091 Z-0.0385
N2541 X6.4196 Y0.8204 Z-0.0448
N2542 X6.4932 Y0.8629 Z-0.0678
N2543 X6.5784 Y0.9121 Z-0.0931
N2544 X6.6653 Y0.9622 Z-0.1173
N2545 X6.7409 Y1.0059 Z-0.1374
N2546 X6.8166 Y1.0496 Z-0.1564
N2547 X6.8784 Y1.0853 Z-0.1712
N2548 X6.966 Y1.1359 Z-0.1912
N2549 X7.0539 Y1.1866 Z-0.2099
N2550 X7.1433 Y1.2382 Z-0.2275
N2551 X7.2199 Y1.2824 Z-0.2417
N2552 X7.2966 Y1.3267 Z-0.255
N2553 X7.3734 Y1.371 Z-0.2674
N2554 X7.4503 Y1.4154 Z-0.2789
N2555 X7.5521 Y1.4742 Z-0.2928
N2556 X7.6423 Y1.5263 Z-0.3038
N2557 X7.7194 Y1.5709 Z-0.3123
N2558 X7.7967 Y1.6155 Z-0.32
N2559 X7.874 Y1.6601 Z-0.3269
N2560 X7.8769 Y1.6618
N2561 X7.8798 Y1.6634 Z-0.3265
N2562 X7.8825 Y1.665 Z-0.3256
N2563 X7.8852 Y1.6665 Z-0.3244
N2564 X7.8883 Y1.6683 Z-0.323
N2565 X7.8915 Y1.6702 Z-0.3221
N2566 X7.8947 Y1.672 Z-0.3218
N2567 X7.9257 Y1.6899
N2568 X7.9275 Y1.6911
N2569 X7.9292 Y1.6923 Z-0.3219
N2570 X7.9309 Y1.6937
N2571 X7.9325 Y1.6952 Z-0.322
N2572 X7.9339 Y1.6968 Z-0.3221
N2573 X7.9353 Y1.6984 Z-0.3222
N2574 X7.9365 Y1.7002 Z-0.3224
N2575 X7.9376 Y1.7021 Z-0.3225
N2576 X7.9386 Y1.704 Z-0.3227
N2577 X7.9394 Y1.706 Z-0.3229
N2578 X7.9401 Y1.708 Z-0.3231
N2579 X7.9407 Y1.71 Z-0.3233
N2580 X7.9411 Y1.7121 Z-0.3235
N2581 X7.9414 Y1.7143 Z-0.3238
N2582 X7.9415 Y1.7164 Z-0.3241
N2583 Y1.7185 Z-0.3243
N2584 X7.9414 Y1.7207 Z-0.3246
N2585 X7.9411 Y1.7228 Z-0.3249
N2586 X7.9406 Y1.7249 Z-0.3252
N2587 X7.94 Y1.7269 Z-0.3255
N2588 X7.9393 Y1.7289 Z-0.3258
N2589 X7.9384 Y1.7309 Z-0.3262
N2590 X7.9374 Y1.7328 Z-0.3265
N2591 X7.9363 Y1.7346 Z-0.3268
N2592 X7.935 Y1.7363 Z-0.3271
N2593 X7.9337 Y1.7379 Z-0.3274
N2594 X7.9322 Y1.7395 Z-0.3277
N2595 X7.9306 Y1.7409 Z-0.328
N2596 X7.9289 Y1.7422 Z-0.3283
N2597 X7.9271 Y1.7434 Z-0.3286
N2598 X7.9253 Y1.7445 Z-0.3289
N2599 X7.9234 Y1.7455 Z-0.3291
N2600 X7.9214 Y1.7463 Z-0.3294
N2601 X7.9194 Y1.747 Z-0.3296
N2602 X7.9173 Y1.7475 Z-0.3299
N2603 X7.9152 Y1.7479 Z-0.3301
N2604 X7.9131 Y1.7482 Z-0.3303
N2605 X7.9109 Y1.7483 Z-0.3304
N2606 X7.9088 Z-0.3306
N2607 X7.9066 Y1.7481 Z-0.3307
N2608 X7.9045 Y1.7478 Z-0.3308
N2609 X7.9024 Y1.7473 Z-0.3309
N2610 X7.9003 Y1.7467 Z-0.331
N2611 X7.8983 Y1.7459 Z-0.3311
N2612 X7.8963 Y1.7451
N2613 X7.8944 Y1.744
N2614 X7.8911 Y1.7421 Z-0.3314
N2615 X7.8879 Y1.7403 Z-0.3322
N2616 X7.8849 Y1.7385 Z-0.3337
N2617 X7.8823 Y1.737 Z-0.3349
N2618 X7.8796 Y1.7355 Z-0.3357
N2619 X7.8768 Y1.7339 Z-0.3362
N2620 X7.874 Y1.7323
N2621 X7.7704 Y1.6724 Z-0.3287
N2622 X7.6813 Y1.621 Z-0.3209
N2623 X7.604 Y1.5764 Z-0.3133
N2624 X7.5268 Y1.5318 Z-0.3049
N2625 X7.4497 Y1.4873 Z-0.2956
N2626 X7.3727 Y1.4428 Z-0.2855
N2627 X7.2827 Y1.3908 Z-0.2726
N2628 X7.1824 Y1.333 Z-0.2568
N2629 X7.107 Y1.2894 Z-0.2439
N2630 X7.0305 Y1.2452 Z-0.2298
N2631 X6.9553 Y1.2018 Z-0.2152
N2632 X6.879 Y1.1578 Z-0.1994
N2633 X6.7912 Y1.1071 Z-0.1801
N2634 X6.7037 Y1.0565 Z-0.1594
N2635 X6.6305 Y1.0143 Z-0.1412
N2636 X6.5562 Y0.9714 Z-0.1216
N2637 X6.4948 Y0.936 Z-0.1048
N2638 X6.4196 Y0.8925 Z-0.0831
N2639 X6.3585 Y0.8573 Z-0.0648
N2640 X6.2977 Y0.8221 Z-0.0458
N2641 X6.2751 Y0.8091 Z-0.0386
N2642 Z-0.0385
N2643 X6.273 Y0.8079 Z-0.0378
N2644 X6.1917 Y0.761 Z-0.0012
N2645 X6.1897 Y0.7599 Z-0.0004
N2646 X6.1876 Y0.7589 Z0.0003
N2647 X6.1855 Y0.7581 Z0.001
N2648 X6.1833 Y0.7573 Z0.0016
N2649 X6.181 Y0.7567 Z0.0021
N2650 X6.1787 Y0.7562 Z0.0025
N2651 X6.1763 Y0.7558 Z0.0028
N2652 X6.1739 Y0.7555 Z0.003
N2653 X6.1715 Y0.7554 Z0.0031
N2654 X6.1691
N2655 X6.1667 Y0.7555 Z0.003
N2656 X6.1643 Y0.7557 Z0.0029
N2657 X6.1619 Y0.7561 Z0.0026
N2658 X6.1596 Y0.7565 Z0.0022
N2659 X6.1573 Y0.7571 Z0.0017
N2660 X6.155 Y0.7578 Z0.0012
N2661 X6.1529 Y0.7587 Z0.0005
N2662 X6.1508 Y0.7596 Z-0.0002
N2663 X6.1487 Y0.7606 Z-0.001
N2664 X6.1468 Y0.7618 Z-0.0019
N2665 X6.145 Y0.763 Z-0.0028
N2666 X6.1433 Y0.7644 Z-0.0039
N2667 X6.1416 Y0.7658 Z-0.005
N2668 X6.1402 Y0.7673 Z-0.0062
N2669 X6.1388 Y0.7689 Z-0.0074
N2670 X6.1376 Y0.7705 Z-0.0087
N2671 X6.1365 Y0.7722 Z-0.01
N2672 X6.1355 Y0.774 Z-0.0113
N2673 X6.1347 Y0.7758 Z-0.0127
N2674 X6.1341 Y0.7776 Z-0.0142
N2675 X6.1336 Y0.7795 Z-0.0156
N2676 X6.1333 Y0.7813 Z-0.0171
N2677 X6.1331 Y0.7832 Z-0.0186
N2678 Y0.7852 Z-0.02
N2679 X6.1332 Y0.7871 Z-0.0215
N2680 X6.1335 Y0.7889 Z-0.023
N2681 X6.1339 Y0.7908 Z-0.0244
N2682 X6.1345 Y0.7927 Z-0.0259
N2683 X6.1353 Y0.7945 Z-0.0273
N2684 X6.1362 Y0.7962 Z-0.0287
N2685 X6.1372 Y0.798 Z-0.03
N2686 X6.1384 Y0.7996 Z-0.0313
N2687 X6.1397 Y0.8012 Z-0.0325
N2688 X6.1412 Y0.8027 Z-0.0337
N2689 X6.1428 Y0.8042 Z-0.0348
N2690 X6.1445 Y0.8055 Z-0.0359
N2691 X6.1463 Y0.8068 Z-0.0369
N2692 X6.1482 Y0.808 Z-0.0378
N2693 X6.1502 Y0.8092 Z-0.0386
N2694 X6.1565 Y0.8128 Z-0.0406
N2695 X6.2287 Y0.8545 Z-0.0633
N2696 X6.3025 Y0.8971 Z-0.0855
N2697 X6.3637 Y0.9324 Z-0.1031
N2698 X6.4378 Y0.9752 Z-0.1234
N2699 X6.5108 Y1.0174 Z-0.1425
N2700 X6.5982 Y1.0678 Z-0.1642
N2701 X6.6858 Y1.1184 Z-0.1844
N2702 X6.762 Y1.1624 Z-0.2011
N2703 X6.8384 Y1.2065 Z-0.2168
N2704 X6.9135 Y1.2499 Z-0.2314
N2705 X7.0148 Y1.3084 Z-0.2496
N2706 X7.1046 Y1.3602 Z-0.2644
N2707 X7.1815 Y1.4046 Z-0.2761
N2708 X7.2584 Y1.449 Z-0.287
N2709 X7.3355 Y1.4935 Z-0.297
N2710 X7.4113 Y1.5373 Z-0.306
N2711 X7.5003 Y1.5886 Z-0.3156
N2712 X7.6038 Y1.6484 Z-0.3251
N2713 X7.6942 Y1.7006 Z-0.3324
N2714 X7.7716 Y1.7453 Z-0.3376
N2715 X7.874 Y1.8044 Z-0.3434
N2716 X7.8767 Y1.806 Z-0.3433
N2717 X7.8794 Y1.8075 Z-0.3429
N2718 X7.8821 Y1.8091 Z-0.342
N2719 X7.8846 Y1.8105 Z-0.3408
N2720 X7.8876 Y1.8123 Z-0.3394
N2721 X7.8908 Y1.8141 Z-0.3386
N2722 X7.8941 Y1.816 Z-0.3383
N2723 X7.925 Y1.8339
N2724 X7.9269 Y1.8351
N2725 X7.9287 Y1.8364
N2726 X7.9304 Y1.8378
N2727 X7.932 Y1.8394 Z-0.3384
N2728 X7.9335 Y1.8411
N2729 X7.9349 Y1.8428 Z-0.3385
N2730 X7.9361 Y1.8447 Z-0.3386
N2731 X7.9372 Y1.8466 Z-0.3387
N2732 X7.9382 Y1.8487 Z-0.3388
N2733 X7.939 Y1.8507 Z-0.3389
N2734 X7.9397 Y1.8529 Z-0.339
N2735 X7.9402 Y1.8551 Z-0.3391
N2736 X7.9405 Y1.8573 Z-0.3393
N2737 X7.9407 Y1.8595 Z-0.3394
N2738 Y1.8617 Z-0.3396
N2739 X7.9406 Y1.8639 Z-0.3397
N2740 X7.9403 Y1.8662 Z-0.3399
N2741 X7.9399 Y1.8683 Z-0.3401
N2742 X7.9393 Y1.8705 Z-0.3402
N2743 X7.9385 Y1.8726 Z-0.3404
N2744 X7.9376 Y1.8746 Z-0.3406
N2745 X7.9366 Y1.8766 Z-0.3408
N2746 X7.9354 Y1.8785 Z-0.3409
N2747 X7.9341 Y1.8803 Z-0.3411
N2748 X7.9326 Y1.882 Z-0.3413
N2749 X7.9311 Y1.8836 Z-0.3415
N2750 X7.9294 Y1.8851 Z-0.3416
N2751 X7.9276 Y1.8864 Z-0.3418
N2752 X7.9257 Y1.8877 Z-0.342
N2753 X7.9238 Y1.8887 Z-0.3421
N2754 X7.9218 Y1.8897 Z-0.3423
N2755 X7.9197 Y1.8905 Z-0.3424
N2756 X7.9176 Y1.8911 Z-0.3425
N2757 X7.9154 Y1.8916 Z-0.3426
N2758 X7.9132 Y1.892 Z-0.3428
N2759 X7.9109 Y1.8922 Z-0.3429
N2760 X7.9087 Z-0.343
N2761 X7.9065 Y1.8921
N2762 X7.9043 Y1.8918 Z-0.3431
N2763 X7.9021 Y1.8913 Z-0.3432
N2764 X7.8999 Y1.8907
N2765 X7.8978 Y1.8899
N2766 X7.8958 Y1.889 Z-0.3433
N2767 X7.8938 Y1.888
N2768 X7.8905 Y1.8861 Z-0.3435
N2769 X7.8873 Y1.8843 Z-0.3444
N2770 X7.8843 Y1.8825 Z-0.3458
N2771 X7.8818 Y1.8811 Z-0.347
N2772 X7.8793 Y1.8796 Z-0.3478
N2773 X7.8767 Y1.8781 Z-0.3483
N2774 X7.874 Y1.8766
N2775 X7.7834 Y1.8242 Z-0.3449
N2776 X7.7059 Y1.7795 Z-0.3411
N2777 X7.6285 Y1.7348 Z-0.3364
N2778 X7.5379 Y1.6825 Z-0.33
N2779 X7.4357 Y1.6235 Z-0.3213
N2780 X7.3454 Y1.5714 Z-0.3124
N2781 X7.2695 Y1.5276 Z-0.3041
N2782 X7.1924 Y1.483 Z-0.2947
N2783 X7.0892 Y1.4235 Z-0.2809
N2784 X7.0006 Y1.3723 Z-0.2677
N2785 X6.9252 Y1.3288 Z-0.2556
N2786 X6.8485 Y1.2845 Z-0.2423
N2787 X6.7732 Y1.241 Z-0.2285
N2788 X6.6968 Y1.1969 Z-0.2135
N2789 X6.6088 Y1.1461 Z-0.1951
N2790 X6.5211 Y1.0955 Z-0.1754
N2791 X6.4465 Y1.0524 Z-0.1576
N2792 X6.372 Y1.0094 Z-0.139
N2793 X6.2977 Y0.9665 Z-0.1193
N2794 X6.2236 Y0.9237 Z-0.0988
N2795 X6.137 Y0.8737 Z-0.0735
N2796 X6.0532 Y0.8254 Z-0.0476
N2797 X6.0253 Y0.8092 Z-0.0386
N2798 X6.0252
N2799 X6.0232 Y0.808 Z-0.0378
N2800 X5.9418 Y0.761 Z-0.0013
N2801 X5.9398 Y0.76 Z-0.0004
N2802 X5.9378 Y0.759 Z0.0003
N2803 X5.9356 Y0.7581 Z0.001
N2804 X5.9334 Y0.7574 Z0.0016
N2805 X5.9311 Y0.7567 Z0.002
N2806 X5.9288 Y0.7562 Z0.0024
N2807 X5.9264 Y0.7558 Z0.0027
N2808 X5.924 Y0.7556 Z0.003
N2809 X5.9216 Y0.7554 Z0.0031
N2810 X5.9192
N2811 X5.9168 Y0.7555 Z0.003
N2812 X5.9144 Y0.7558 Z0.0028
N2813 X5.912 Y0.7561 Z0.0025
N2814 X5.9097 Y0.7566 Z0.0022
N2815 X5.9074 Y0.7572 Z0.0017
N2816 X5.9051 Y0.7579 Z0.0012
N2817 X5.903 Y0.7587 Z0.0005
N2818 X5.9009 Y0.7597 Z-0.0002
N2819 X5.8989 Y0.7607 Z-0.001
N2820 X5.8969 Y0.7618 Z-0.0019
N2821 X5.8951 Y0.7631 Z-0.0029
N2822 X5.8934 Y0.7644 Z-0.0039
N2823 X5.8918 Y0.7658 Z-0.005
N2824 X5.8903 Y0.7673 Z-0.0062
N2825 X5.8889 Y0.7689 Z-0.0074
N2826 X5.8877 Y0.7706 Z-0.0087
N2827 X5.8866 Y0.7723 Z-0.01
N2828 X5.8857 Y0.774 Z-0.0114
N2829 X5.8849 Y0.7758 Z-0.0128
N2830 X5.8842 Y0.7776 Z-0.0142
N2831 X5.8837 Y0.7795 Z-0.0156
N2832 X5.8834 Y0.7814 Z-0.0171
N2833 X5.8832 Y0.7833 Z-0.0186
N2834 Y0.7852 Z-0.0201
N2835 X5.8833 Y0.7871 Z-0.0216
N2836 X5.8836 Y0.789 Z-0.023
N2837 X5.884 Y0.7909 Z-0.0245
N2838 X5.8846 Y0.7927 Z-0.0259
N2839 X5.8854 Y0.7945 Z-0.0273
N2840 X5.8863 Y0.7963 Z-0.0287
N2841 X5.8873 Y0.798 Z-0.03
N2842 X5.8885 Y0.7997 Z-0.0313
N2843 X5.8899 Y0.8013 Z-0.0326
N2844 X5.8913 Y0.8028 Z-0.0337
N2845 X5.8929 Y0.8042 Z-0.0349
N2846 X5.8946 Y0.8056 Z-0.0359
N2847 X5.8964 Y0.8069 Z-0.0369
N2848 X5.8983 Y0.808 Z-0.0378
N2849 X5.9003 Y0.8092 Z-0.0386
N2850 X5.9172 Y0.819 Z-0.044
N2851 X5.9895 Y0.8607 Z-0.0666
N2852 X6.062 Y0.9026 Z-0.0883
N2853 X6.1462 Y0.9512 Z-0.1122
N2854 X6.2332 Y1.0014 Z-0.1354
N2855 X6.3064 Y1.0437 Z-0.1539
N2856 X6.381 Y1.0867 Z-0.1719
N2857 X6.4557 Y1.1299 Z-0.1889
N2858 X6.5539 Y1.1866 Z-0.2099
N2859 X6.642 Y1.2374 Z-0.2273
N2860 X6.7185 Y1.2816 Z-0.2414
N2861 X6.7939 Y1.3251 Z-0.2545
N2862 X6.8707 Y1.3695 Z-0.2669
N2863 X6.9462 Y1.4131 Z-0.2783
N2864 X7.0232 Y1.4575 Z-0.289
N2865 X7.1251 Y1.5164 Z-0.3018
N2866 X7.2154 Y1.5685 Z-0.3119
N2867 X7.2913 Y1.6123 Z-0.3195
N2868 X7.3686 Y1.657 Z-0.3264
N2869 X7.446 Y1.7016 Z-0.3325
N2870 X7.5234 Y1.7463 Z-0.3377
N2871 X7.6258 Y1.8054 Z-0.3434
N2872 X7.7164 Y1.8577 Z-0.3472
N2873 X7.7947 Y1.903 Z-0.3496
N2874 X7.874 Y1.9487 Z-0.3512
N2875 X7.8774 Y1.9507 Z-0.3509
N2876 X7.8807 Y1.9526 Z-0.3501
N2877 X7.8839 Y1.9545 Z-0.3486
N2878 X7.887 Y1.9562 Z-0.3472
N2879 X7.8902 Y1.9581 Z-0.3464
N2880 X7.8934 Y1.96 Z-0.3461
N2881 X7.9258 Y1.9786
N2882 G3 X7.8945 Y2.0328 I-0.0156 J0.0271
N2883 G1 X7.8913 Y2.0309 Z-0.3464
N2884 X7.8881 Y2.029 Z-0.3472
N2885 X7.885 Y2.0273 Z-0.3486
N2886 X7.8836 Y2.0265 Z-0.3494
N2887 X7.8806 Y2.0247 Z-0.3508
N2888 X7.8773 Y2.0228 Z-0.3517
N2889 X7.874 Y2.0209 Z-0.352
N2890 X7.7625 Y1.9565 Z-0.3514
N2891 X7.6765 Y1.9069 Z-0.3498
N2892 X7.6046 Y1.8654 Z-0.3477
N2893 X7.5271 Y1.8206 Z-0.3446
N2894 X7.4496 Y1.7759 Z-0.3407
N2895 X7.346 Y1.716 Z-0.3343
N2896 X7.2437 Y1.657 Z-0.3264
N2897 X7.1664 Y1.6123 Z-0.3195
N2898 X7.0905 Y1.5685 Z-0.3119
N2899 X7.0002 Y1.5164 Z-0.3018
N2900 X6.8996 Y1.4583 Z-0.2892
N2901 X6.8109 Y1.4071 Z-0.2768
N2902 X6.7354 Y1.3635 Z-0.2653
N2903 X6.6586 Y1.3192 Z-0.2528
N2904 X6.5703 Y1.2682 Z-0.2373
N2905 X6.4718 Y1.2113 Z-0.2185
N2906 X6.3967 Y1.168 Z-0.2031
N2907 X6.3218 Y1.1248 Z-0.1869
N2908 X6.2471 Y1.0816 Z-0.1698
N2909 X6.1725 Y1.0385 Z-0.1517
N2910 X6.0853 Y0.9882 Z-0.1295
N2911 X5.9996 Y0.9387 Z-0.1061
N2912 X5.9269 Y0.8967 Z-0.0853
N2913 X5.8545 Y0.8549 Z-0.0635
N2914 X5.7822 Y0.8132 Z-0.0408
N2915 X5.7754 Y0.8093 Z-0.0386
N2916 X5.7733 Y0.8081 Z-0.0378
N2917 X5.692 Y0.7611 Z-0.0013
N2918 X5.69 Y0.76 Z-0.0005
N2919 X5.6879 Y0.759 Z0.0003
N2920 X5.6857 Y0.7582 Z0.0009
N2921 X5.6835 Y0.7574 Z0.0015
N2922 X5.6812 Y0.7568 Z0.002
N2923 X5.6789 Y0.7563 Z0.0024
N2924 X5.6765 Y0.7559 Z0.0027
N2925 X5.6741 Y0.7556 Z0.0029
N2926 X5.6717 Y0.7555 Z0.003
N2927 X5.6693
N2928 X5.6669 Y0.7556
N2929 X5.6645 Y0.7558 Z0.0028
N2930 X5.6621 Y0.7562 Z0.0025
N2931 X5.6598 Y0.7566 Z0.0021
N2932 X5.6575 Y0.7572 Z0.0017
N2933 X5.6553 Y0.758 Z0.0011
N2934 X5.6531 Y0.7588 Z0.0005
N2935 X5.651 Y0.7597 Z-0.0002
N2936 X5.649 Y0.7608 Z-0.0011
N2937 X5.647 Y0.7619 Z-0.0019
N2938 X5.6452 Y0.7631 Z-0.0029
N2939 X5.6435 Y0.7645 Z-0.004
N2940 X5.6419 Y0.7659 Z-0.0051
N2941 X5.6404 Y0.7674 Z-0.0062
N2942 X5.639 Y0.769 Z-0.0074
N2943 X5.6378 Y0.7706 Z-0.0087
N2944 X5.6367 Y0.7723 Z-0.01
N2945 X5.6358 Y0.7741 Z-0.0114
N2946 X5.635 Y0.7759 Z-0.0128
N2947 X5.6343 Y0.7777 Z-0.0142
N2948 X5.6338 Y0.7796 Z-0.0157
N2949 X5.6335 Y0.7815 Z-0.0172
N2950 X5.6333 Y0.7834 Z-0.0186
N2951 Y0.7853 Z-0.0201
N2952 X5.6334 Y0.7872 Z-0.0216
N2953 X5.6337 Y0.7891 Z-0.0231
N2954 X5.6342 Y0.7909 Z-0.0245
N2955 X5.6348 Y0.7928 Z-0.026
N2956 X5.6355 Y0.7946 Z-0.0274
N2957 X5.6364 Y0.7964 Z-0.0287
N2958 X5.6375 Y0.7981 Z-0.0301
N2959 X5.6387 Y0.7997 Z-0.0314
N2960 X5.64 Y0.8013 Z-0.0326
N2961 X5.6414 Y0.8029 Z-0.0338
N2962 X5.643 Y0.8043 Z-0.0349
N2963 X5.6447 Y0.8057 Z-0.036
N2964 X5.6465 Y0.8069 Z-0.037
N2965 X5.6484 Y0.8081 Z-0.0379
N2966 X5.6505 Y0.8093 Z-0.0387
N2967 X5.6851 Y0.8293 Z-0.0498
N2968 X5.7689 Y0.8777 Z-0.0756
N2969 X5.8542 Y0.927 Z-0.1004
N2970 X5.9284 Y0.9697 Z-0.1209
N2971 X6.0014 Y1.0119 Z-0.1401
N2972 X6.099 Y1.0682 Z-0.1643
N2973 X6.1866 Y1.1188 Z-0.1846
N2974 X6.2615 Y1.1621 Z-0.201
N2975 X6.3365 Y1.2054 Z-0.2164
N2976 X6.4116 Y1.2488 Z-0.231
N2977 X6.4869 Y1.2922 Z-0.2447
N2978 X6.5857 Y1.3492 Z-0.2614
N2979 X6.6742 Y1.4004 Z-0.2751
N2980 X6.7512 Y1.4448 Z-0.286
N2981 X6.8269 Y1.4885 Z-0.2959
N2982 X6.9027 Y1.5323 Z-0.305
N2983 X6.9799 Y1.5768 Z-0.3134
N2984 X7.0558 Y1.6207 Z-0.3209
N2985 X7.158 Y1.6797 Z-0.3296
N2986 X7.2472 Y1.7312 Z-0.336
N2987 X7.3378 Y1.7835 Z-0.3415
N2988 X7.427 Y1.835 Z-0.3457
N2989 X7.5314 Y1.8953 Z-0.3493
N2990 X7.6174 Y1.9449 Z-0.3511
N2991 X7.6979 Y1.9914 Z-0.3519
N2992 X7.7801 Y2.0388 Z-0.3518
N2993 X7.874 Y2.0931 Z-0.3507
N2994 X7.8772 Y2.0949 Z-0.3503
N2995 X7.8803 Y2.0967 Z-0.3495
N2996 X7.8833 Y2.0984 Z-0.3481
N2997 X7.8864 Y2.1002 Z-0.3467
N2998 X7.8896 Y2.102 Z-0.3459
N2999 X7.8928 Y2.1039 Z-0.3456
N3000 X7.9237 Y2.1218
N3001 X7.9256 Y2.123
N3002 X7.9274 Y2.1243 Z-0.3455
N3003 X7.9292 Y2.1257
N3004 X7.9308 Y2.1273
N3005 X7.9322 Y2.129
N3006 X7.9336 Y2.1307 Z-0.3454
N3007 X7.9348 Y2.1326 Z-0.3453
N3008 X7.9359 Y2.1345
N3009 X7.9369 Y2.1366 Z-0.3452
N3010 X7.9377 Y2.1386 Z-0.3451
N3011 X7.9383 Y2.1408 Z-0.345
N3012 X7.9388 Y2.1429
N3013 X7.9392 Y2.1451 Z-0.3449
N3014 X7.9394 Y2.1474 Z-0.3448
N3015 Y2.1496 Z-0.3446
N3016 X7.9393 Y2.1518 Z-0.3445
N3017 X7.939 Y2.154 Z-0.3444
N3018 X7.9385 Y2.1562 Z-0.3443
N3019 X7.9379 Y2.1584 Z-0.3442
N3020 X7.9372 Y2.1605 Z-0.344
N3021 X7.9363 Y2.1625 Z-0.3439
N3022 X7.9352 Y2.1645 Z-0.3438
N3023 X7.934 Y2.1664 Z-0.3437
N3024 X7.9327 Y2.1682 Z-0.3435
N3025 X7.9313 Y2.1699 Z-0.3434
N3026 X7.9297 Y2.1715 Z-0.3433
N3027 X7.9281 Y2.173 Z-0.3432
N3028 X7.9263 Y2.1743 Z-0.3431
N3029 X7.9244 Y2.1755 Z-0.3429
N3030 X7.9225 Y2.1766 Z-0.3428
N3031 X7.9205 Y2.1776 Z-0.3427
N3032 X7.9184 Y2.1784 Z-0.3426
N3033 X7.9162 Y2.179 Z-0.3425
N3034 X7.9141 Y2.1795
N3035 X7.9119 Y2.1799 Z-0.3424
N3036 X7.9096 Y2.1801 Z-0.3423
N3037 X7.9074 Z-0.3422
N3038 X7.9052 Y2.18
N3039 X7.903 Y2.1797 Z-0.3421
N3040 X7.9008 Y2.1792
N3041 X7.8986 Y2.1786
N3042 X7.8965 Y2.1779 Z-0.342
N3043 X7.8945 Y2.1769
N3044 X7.8925 Y2.1759
N3045 X7.8892 Y2.174 Z-0.3423
N3046 X7.886 Y2.1722 Z-0.3432
N3047 X7.883 Y2.1704 Z-0.3446
N3048 X7.8801 Y2.1687 Z-0.3459
N3049 X7.8771 Y2.167 Z-0.3468
N3050 X7.874 Y2.1652 Z-0.3471
N3051 X7.7892 Y2.1163 Z-0.3497
N3052 X7.7021 Y2.0659 Z-0.3514
N3053 X7.5947 Y2.004 Z-0.352
N3054 X7.5058 Y1.9526 Z-0.3513
N3055 X7.4265 Y1.9069 Z-0.3498
N3056 X7.3546 Y1.8654 Z-0.3477
N3057 X7.2771 Y1.8206 Z-0.3446
N3058 X7.1997 Y1.7759 Z-0.3407
N3059 X7.096 Y1.716 Z-0.3343
N3060 X6.9964 Y1.6585 Z-0.3266
N3061 X6.906 Y1.6063 Z-0.3185
N3062 X6.8039 Y1.5474 Z-0.308
N3063 X6.7163 Y1.4968 Z-0.2977
N3064 X6.6406 Y1.4531 Z-0.288
N3065 X6.5649 Y1.4094 Z-0.2774
N3066 X6.488 Y1.365 Z-0.2657
N3067 X6.4126 Y1.3215 Z-0.2534
N3068 X6.3256 Y1.2712 Z-0.2382
N3069 X6.2258 Y1.2136 Z-0.2193
N3070 X6.1404 Y1.1643 Z-0.2018
N3071 X6.0655 Y1.1211 Z-0.1855
N3072 X5.9792 Y1.0713 Z-0.1656
N3073 X5.8816 Y1.0149 Z-0.1414
N3074 X5.8086 Y0.9728 Z-0.1223
N3075 X5.7358 Y0.9307 Z-0.1022
N3076 X5.6618 Y0.888 Z-0.0809
N3077 X5.5754 Y0.8381 Z-0.0546
N3078 X5.5255 Y0.8093 Z-0.0387
N3079 X5.5234 Y0.8081 Z-0.0379
N3080 X5.4421 Y0.7611 Z-0.0014
N3081 X5.4401 Y0.7601 Z-0.0005
N3082 X5.438 Y0.7591 Z0.0002
N3083 X5.4359 Y0.7582 Z0.0009
N3084 X5.4336 Y0.7575 Z0.0015
N3085 X5.4314 Y0.7569 Z0.002
N3086 X5.429 Y0.7564 Z0.0024
N3087 X5.4267 Y0.756 Z0.0027
N3088 X5.4243 Y0.7557 Z0.0029
N3089 X5.4219 Y0.7556 Z0.003
N3090 X5.4195 Y0.7555
N3091 X5.417 Y0.7556 Z0.0029
N3092 X5.4146 Y0.7559 Z0.0027
N3093 X5.4123 Y0.7562 Z0.0025
N3094 X5.4099 Y0.7567 Z0.0021
N3095 X5.4076 Y0.7573 Z0.0016
N3096 X5.4054 Y0.758 Z0.0011
N3097 X5.4032 Y0.7588 Z0.0004
N3098 X5.4011 Y0.7598 Z-0.0003
N3099 X5.3991 Y0.7608 Z-0.0011
N3100 X5.3972 Y0.762 Z-0.002
N3101 X5.3953 Y0.7632 Z-0.003
N3102 X5.3936 Y0.7645 Z-0.004
N3103 X5.392 Y0.766 Z-0.0051
N3104 X5.3905 Y0.7675 Z-0.0063
N3105 X5.3892 Y0.769 Z-0.0075
N3106 X5.3879 Y0.7707 Z-0.0088
N3107 X5.3869 Y0.7724 Z-0.0101
N3108 X5.3859 Y0.7741 Z-0.0115
N3109 X5.3851 Y0.7759 Z-0.0128
N3110 X5.3845 Y0.7778 Z-0.0143
N3111 X5.384 Y0.7796 Z-0.0157
N3112 X5.3836 Y0.7815 Z-0.0172
N3113 X5.3834 Y0.7834 Z-0.0187
N3114 Y0.7853 Z-0.0202
N3115 X5.3836 Y0.7872 Z-0.0216
N3116 X5.3839 Y0.7891 Z-0.0231
N3117 X5.3843 Y0.791 Z-0.0246
N3118 X5.3849 Y0.7928 Z-0.026
N3119 X5.3857 Y0.7947 Z-0.0274
N3120 X5.3866 Y0.7964 Z-0.0288
N3121 X5.3876 Y0.7981 Z-0.0301
N3122 X5.3888 Y0.7998 Z-0.0314
N3123 X5.3901 Y0.8014 Z-0.0326
N3124 X5.3916 Y0.8029 Z-0.0338
N3125 X5.3931 Y0.8044 Z-0.0349
N3126 X5.3948 Y0.8057 Z-0.036
N3127 X5.3966 Y0.807 Z-0.037
N3128 X5.3985 Y0.8082 Z-0.0379
N3129 X5.4006 Y0.8094 Z-0.0387
N3130 X5.4328 Y0.828 Z-0.049
N3131 X5.5153 Y0.8756 Z-0.0745
N3132 X5.6019 Y0.9256 Z-0.0997
N3133 X5.6747 Y0.9676 Z-0.1199
N3134 X5.7477 Y1.0098 Z-0.1391
N3135 X5.8209 Y1.052 Z-0.1575
N3136 X5.8942 Y1.0943 Z-0.175
N3137 X5.9922 Y1.1509 Z-0.1969
N3138 X6.0788 Y1.2009 Z-0.2149
N3139 X6.154 Y1.2443 Z-0.2296
N3140 X6.2396 Y1.2937 Z-0.2452
N3141 X6.3397 Y1.3515 Z-0.262
N3142 X6.4269 Y1.4019 Z-0.2755
N3143 X6.5025 Y1.4456 Z-0.2862
N3144 X6.5783 Y1.4893 Z-0.2961
N3145 X6.6789 Y1.5474 Z-0.308
N3146 X6.781 Y1.6063 Z-0.3185
N3147 X6.8714 Y1.6585 Z-0.3266
N3148 X6.971 Y1.716 Z-0.3343
N3149 X7.0747 Y1.7759 Z-0.3407
N3150 X7.1521 Y1.8206 Z-0.3446
N3151 X7.2296 Y1.8654 Z-0.3477
N3152 X7.3082 Y1.9107 Z-0.3499
N3153 X7.4009 Y1.9643 Z-0.3516
N3154 X7.5036 Y2.0235 Z-0.352
N3155 X7.5908 Y2.0739 Z-0.3512
N3156 X7.6713 Y2.1203 Z-0.3495
N3157 X7.7703 Y2.1775 Z-0.3464
N3158 X7.874 Y2.2374 Z-0.3415
N3159 X7.877 Y2.2391 Z-0.3411
N3160 X7.8799 Y2.2408 Z-0.3403
N3161 X7.8827 Y2.2424 Z-0.339
N3162 X7.8857 Y2.2441 Z-0.3376
N3163 X7.8889 Y2.246 Z-0.3367
N3164 X7.8922 Y2.2479 Z-0.3364
N3165 X7.9231 Y2.2657
N3166 X7.9249 Y2.2669
N3167 X7.9267 Y2.2681
N3168 X7.9283 Y2.2695 Z-0.3363
N3169 X7.9299 Y2.271
N3170 X7.9313 Y2.2726 Z-0.3362
N3171 X7.9327 Y2.2743 Z-0.3361
N3172 X7.9339 Y2.276 Z-0.336
N3173 X7.935 Y2.2779 Z-0.3359
N3174 X7.936 Y2.2798 Z-0.3357
N3175 X7.9368 Y2.2817 Z-0.3356
N3176 X7.9375 Y2.2838 Z-0.3354
N3177 X7.9381 Y2.2858 Z-0.3352
N3178 X7.9385 Y2.2879 Z-0.335
N3179 X7.9388 Y2.2901 Z-0.3348
N3180 X7.9389 Y2.2922 Z-0.3346
N3181 Y2.2943 Z-0.3344
N3182 X7.9387 Y2.2965 Z-0.3341
N3183 X7.9384 Y2.2986 Z-0.3339
N3184 X7.938 Y2.3007 Z-0.3336
N3185 X7.9374 Y2.3027 Z-0.3334
N3186 X7.9366 Y2.3047 Z-0.3331
N3187 X7.9358 Y2.3067 Z-0.3329
N3188 X7.9348 Y2.3085 Z-0.3326
N3189 X7.9336 Y2.3104 Z-0.3323
N3190 X7.9324 Y2.3121 Z-0.3321
N3191 X7.931 Y2.3137 Z-0.3318
N3192 X7.9295 Y2.3153 Z-0.3316
N3193 X7.928 Y2.3167 Z-0.3313
N3194 X7.9263 Y2.318 Z-0.3311
N3195 X7.9245 Y2.3192 Z-0.3308
N3196 X7.9227 Y2.3203 Z-0.3306
N3197 X7.9208 Y2.3213 Z-0.3304
N3198 X7.9188 Y2.3221 Z-0.3302
N3199 X7.9168 Y2.3228 Z-0.33
N3200 X7.9147 Y2.3233 Z-0.3298
N3201 X7.9126 Y2.3237 Z-0.3296
N3202 X7.9105 Y2.324 Z-0.3295
N3203 X7.9083 Y2.3241 Z-0.3293
N3204 X7.9062 Z-0.3292
N3205 X7.904 Y2.3239 Z-0.3291
N3206 X7.9019 Y2.3236 Z-0.329
N3207 X7.8998 Y2.3231 Z-0.3289
N3208 X7.8977 Y2.3225 Z-0.3288
N3209 X7.8957 Y2.3218
N3210 X7.8938 Y2.3209
N3211 X7.8919 Y2.3199 Z-0.3287
N3212 X7.8886 Y2.318 Z-0.329
N3213 X7.8854 Y2.3161 Z-0.3299
N3214 X7.8823 Y2.3144 Z-0.3313
N3215 X7.8797 Y2.3128 Z-0.3326
N3216 X7.8769 Y2.3112 Z-0.3334
N3217 X7.874 Y2.3096 Z-0.3338
N3218 X7.7821 Y2.2565 Z-0.3397
N3219 X7.6902 Y2.2034 Z-0.3444
N3220 X7.6114 Y2.1579 Z-0.3476
N3221 X7.525 Y2.108 Z-0.3501
N3222 X7.4177 Y2.0461 Z-0.3518
N3223 X7.3296 Y1.9952 Z-0.3519
N3224 X7.2491 Y1.9488 Z-0.3512
N3225 X7.1698 Y1.903 Z-0.3496
N3226 X7.0915 Y1.8578 Z-0.3472
N3227 X6.9891 Y1.7986 Z-0.3429
N3228 X6.8867 Y1.7395 Z-0.337
N3229 X6.8106 Y1.6956 Z-0.3317
N3230 X6.7346 Y1.6517 Z-0.3256
N3231 X6.6442 Y1.5995 Z-0.3174
N3232 X6.5435 Y1.5414 Z-0.3068
N3233 X6.4559 Y1.4908 Z-0.2964
N3234 X6.3802 Y1.4471 Z-0.2865
N3235 X6.3046 Y1.4034 Z-0.2758
N3236 X6.216 Y1.3523 Z-0.2623
N3237 X6.1159 Y1.2945 Z-0.2455
N3238 X6.0303 Y1.2451 Z-0.2298
N3239 X5.9552 Y1.2017 Z-0.2151
N3240 X5.8802 Y1.1584 Z-0.1996
N3241 X5.7924 Y1.1077 Z-0.1803
N3242 X5.6959 Y1.052 Z-0.1575
N3243 X5.624 Y1.0105 Z-0.1395
N3244 X5.5511 Y0.9684 Z-0.1202
N3245 X5.4782 Y0.9264 Z-0.1001
N3246 X5.3929 Y0.8771 Z-0.0753
N3247 X5.3104 Y0.8295 Z-0.0499
N3248 X5.2757 Y0.8094 Z-0.0387
N3249 X5.2736 Y0.8082 Z-0.0379
N3250 X5.1921 Y0.7612 Z-0.0014
N3251 X5.1901 Y0.7601 Z-0.0005
N3252 X5.188 Y0.7591 Z0.0002
N3253 X5.1859 Y0.7582 Z0.0009
N3254 X5.1837 Y0.7575 Z0.0015
N3255 X5.1814 Y0.7569 Z0.002
N3256 X5.1791 Y0.7564 Z0.0024
N3257 X5.1767 Y0.756 Z0.0027
N3258 X5.1743 Y0.7557 Z0.0029
N3259 X5.1719 Y0.7556 Z0.003
N3260 X5.1695 Y0.7555
N3261 X5.1671 Y0.7556 Z0.0029
N3262 X5.1647 Y0.7559 Z0.0027
N3263 X5.1623 Y0.7562 Z0.0025
N3264 X5.16 Y0.7567 Z0.0021
N3265 X5.1577 Y0.7573 Z0.0016
N3266 X5.1554 Y0.758 Z0.0011
N3267 X5.1533 Y0.7588 Z0.0004
N3268 X5.1512 Y0.7598 Z-0.0003
N3269 X5.1491 Y0.7608 Z-0.0011
N3270 X5.1472 Y0.762 Z-0.002
N3271 X5.1454 Y0.7632 Z-0.003
N3272 X5.1437 Y0.7645 Z-0.004
N3273 X5.142 Y0.766 Z-0.0051
N3274 X5.1406 Y0.7675 Z-0.0063
N3275 X5.1392 Y0.769 Z-0.0075
N3276 X5.138 Y0.7707 Z-0.0088
N3277 X5.1369 Y0.7724 Z-0.0101
N3278 X5.1359 Y0.7741 Z-0.0115
N3279 X5.1351 Y0.7759 Z-0.0129
N3280 X5.1345 Y0.7778 Z-0.0143
N3281 X5.134 Y0.7796 Z-0.0157
N3282 X5.1337 Y0.7815 Z-0.0172
N3283 X5.1335 Y0.7834 Z-0.0187
N3284 Y0.7853 Z-0.0202
N3285 X5.1336 Y0.7872 Z-0.0216
N3286 X5.1339 Y0.7891 Z-0.0231
N3287 X5.1343 Y0.791 Z-0.0246
N3288 X5.1349 Y0.7928 Z-0.026
N3289 X5.1357 Y0.7947 Z-0.0274
N3290 X5.1366 Y0.7964 Z-0.0288
N3291 X5.1376 Y0.7981 Z-0.0301
N3292 X5.1388 Y0.7998 Z-0.0314
N3293 X5.1401 Y0.8014 Z-0.0326
N3294 X5.1416 Y0.8029 Z-0.0338
N3295 X5.1432 Y0.8044 Z-0.035
N3296 X5.1449 Y0.8057 Z-0.036
N3297 X5.1467 Y0.807 Z-0.037
N3298 X5.1486 Y0.8082 Z-0.0379
N3299 X5.1507 Y0.8094 Z-0.0387
N3300 X5.2261 Y0.853 Z-0.0625
N3301 X5.2973 Y0.894 Z-0.0839
N3302 X5.3686 Y0.9352 Z-0.1044
N3303 X5.4645 Y0.9906 Z-0.1305
N3304 X5.5505 Y1.0402 Z-0.1525
N3305 X5.6237 Y1.0825 Z-0.1701
N3306 X5.6972 Y1.1249 Z-0.187
N3307 X5.7824 Y1.1741 Z-0.2054
N3308 X5.8807 Y1.2309 Z-0.2251
N3309 X5.9676 Y1.281 Z-0.2413
N3310 X6.043 Y1.3246 Z-0.2544
N3311 X6.1184 Y1.3681 Z-0.2666
N3312 X6.2057 Y1.4185 Z-0.2797
N3313 X6.3062 Y1.4765 Z-0.2933
N3314 X6.3937 Y1.527 Z-0.304
N3315 X6.4695 Y1.5708 Z-0.3123
N3316 X6.5455 Y1.6147 Z-0.3199
N3317 X6.6345 Y1.6661 Z-0.3278
N3318 X6.7355 Y1.7244 Z-0.3353
N3319 X6.8261 Y1.7767 Z-0.3408
N3320 X6.9035 Y1.8214 Z-0.3447
N3321 X6.9797 Y1.8654 Z-0.3477
N3322 X7.0583 Y1.9107 Z-0.35
N3323 X7.151 Y1.9643 Z-0.3516
N3324 X7.2543 Y2.0239 Z-0.352
N3325 X7.3415 Y2.0743 Z-0.3512
N3326 X7.422 Y2.1207 Z-0.3495
N3327 X7.5078 Y2.1703 Z-0.3468
N3328 X7.6129 Y2.231 Z-0.3421
N3329 X7.7048 Y2.284 Z-0.3367
N3330 X7.7836 Y2.3295 Z-0.3312
N3331 X7.874 Y2.3817 Z-0.3239
N3332 X7.8768 Y2.3833 Z-0.3234
N3333 X7.8795 Y2.3849 Z-0.3226
N3334 X7.882 Y2.3863 Z-0.3214
N3335 X7.8851 Y2.3881 Z-0.32
N3336 X7.8883 Y2.3899 Z-0.3191
N3337 X7.8915 Y2.3918 Z-0.3188
N3338 X7.9224 Y2.4097
N3339 X7.9243 Y2.4108
N3340 X7.9261 Y2.4121
N3341 X7.9277 Y2.4135 Z-0.3187
N3342 X7.9293 Y2.415 Z-0.3186
N3343 X7.9308 Y2.4166 Z-0.3185
N3344 X7.9321 Y2.4183 Z-0.3183
N3345 X7.9334 Y2.42 Z-0.3181
N3346 X7.9345 Y2.4219 Z-0.3179
N3347 X7.9355 Y2.4238 Z-0.3177
N3348 X7.9363 Y2.4258 Z-0.3175
N3349 X7.9371 Y2.4278 Z-0.3172
N3350 X7.9376 Y2.4299 Z-0.3169
N3351 X7.9381 Y2.432 Z-0.3166
N3352 X7.9384 Y2.4341 Z-0.3163
N3353 X7.9385 Y2.4363 Z-0.3159
N3354 Y2.4384 Z-0.3156
N3355 X7.9383 Y2.4406 Z-0.3152
N3356 X7.938 Y2.4427 Z-0.3148
N3357 X7.9376 Y2.4448 Z-0.3144
N3358 X7.937 Y2.4468 Z-0.314
N3359 X7.9363 Y2.4488 Z-0.3136
N3360 X7.9354 Y2.4508 Z-0.3132
N3361 X7.9344 Y2.4526 Z-0.3128
N3362 X7.9333 Y2.4545 Z-0.3124
N3363 X7.932 Y2.4562 Z-0.3119
N3364 X7.9306 Y2.4578 Z-0.3115
N3365 X7.9291 Y2.4594 Z-0.3111
N3366 X7.9276 Y2.4608 Z-0.3107
N3367 X7.9259 Y2.4621 Z-0.3104
N3368 X7.9241 Y2.4633 Z-0.31
N3369 X7.9223 Y2.4644 Z-0.3096
N3370 X7.9203 Y2.4653 Z-0.3093
N3371 X7.9183 Y2.4662 Z-0.3089
N3372 X7.9163 Y2.4668 Z-0.3086
N3373 X7.9142 Y2.4674 Z-0.3083
N3374 X7.9121 Y2.4678 Z-0.3081
